; generated by Slic3r 1.2.9 on 2016-03-19 at 22:07:39

; external perimeters extrusion width = 0.42mm
; perimeters extrusion width = 0.45mm
; infill extrusion width = 0.50mm
; solid infill extrusion width = 0.55mm
; top infill extrusion width = 0.50mm

M107 ; disable fan
;Startcode FELIXprinters
;Pre-initialize
;================================
G90 ; absolute mode
M107 ; Turn off fan

; Heat up heaters
;================================
; First start heating up, this will prevent damage, if previous print is still on the bed and 
; stuck to the hot-end
G90 ; Absolute positioning
M82 ; Extruder in absolute
M104 S205
M140 S60
M109 S205
M190 S60

; Move up head a little before homing to prevent collision with remainders of filament and bed.
;================================
G91 ; Make coordinates relative
G1 Z1 F200; Move up head a little to prevent tw mm (from current position because it is all relative now) 
G90 ; Use absolute coordinates again

; Home printer
;================================
G28 ; Home all axes

; Purge extruder by drawing 2 lines
;================================
G92 E0			; reset extruder
G1 Z1.0 F3000		; move z down little to prevent scratching of surface
G1 X20.0 Y0.1 Z0.3 F3000.0	; move to start-line position
G1 X200.0 Y0.1 Z0.3 F1500.0 E15	; draw 1st line
G1 X200.0 Y1 Z0.3 F3000.0	; move to side a little
G1 X20.0 Y1 Z0.3 F1500.0 E30	; draw 2nd line
G1 E28.5 F3000		; retract filament 1.5mm
G92 E0					; reset extruder
; done purging
M117 Done purging

; Post-initialize
;================================
M106 ; Turn on fans
M117 FELIXprinting...
G21 ; set units to millimeters
G90 ; use absolute coordinates
M82 ; use absolute distances for extrusion
G92 E0 ; reset extrusion distance
G1 E-1.50000 F2400.00000 ; retract
G92 E0 ; reset extrusion distance
G1 Z-0.300 F10800.000 ; lift Z
G1 Z-0.200 F10800.000 ; move to next layer (0)
G1 Z0.000 F10800.000 ; lift Z
G1 X69.069 Y56.945 F10800.000 ; move to first skirt point
G1 Z-0.200 F10800.000 ; restore layer Z
G1 E1.50000 F2400.00000 ; unretract
G1 X70.849 Y55.280 E1.58988 F3600.000 ; skirt
G1 X73.070 Y54.275 E1.67976 ; skirt
G1 X75.000 Y54.022 E1.75153 ; skirt
G1 X155.700 Y54.022 E4.72705 ; skirt
G1 X158.105 Y54.419 E4.81693 ; skirt
G1 X160.255 Y55.569 E4.90681 ; skirt
G1 X161.989 Y57.454 E5.00126 ; skirt
G1 X181.289 Y87.454 E6.31653 ; skirt
G1 X182.256 Y89.692 E6.40641 ; skirt
G1 X182.478 Y91.500 E6.47358 ; skirt
G1 X182.478 Y143.500 E8.39089 ; skirt
G1 X182.081 Y145.905 E8.48077 ; skirt
G1 X180.931 Y148.055 E8.57066 ; skirt
G1 X179.151 Y149.720 E8.66054 ; skirt
G1 X176.930 Y150.725 E8.75042 ; skirt
G1 X175.000 Y150.978 E8.82219 ; skirt
G1 X75.000 Y150.978 E12.50932 ; skirt
G1 X72.595 Y150.581 E12.59920 ; skirt
G1 X70.445 Y149.431 E12.68908 ; skirt
G1 X68.780 Y147.651 E12.77896 ; skirt
G1 X67.775 Y145.430 E12.86884 ; skirt
G1 X67.522 Y143.500 E12.94061 ; skirt
G1 X67.522 Y61.500 E15.96406 ; skirt
G1 X67.919 Y59.095 E16.05394 ; skirt
G1 X69.044 Y56.992 E16.14189 ; skirt
G1 X69.362 Y57.050 F10800.000 ; move to first skirt point
G1 X71.134 Y55.447 E16.22996 F3600.000 ; skirt
G1 X73.333 Y54.514 E16.31804 ; skirt
G1 X75.000 Y54.318 E16.37994 ; skirt
G1 X155.700 Y54.318 E19.35545 ; skirt
G1 X158.055 Y54.715 E19.44353 ; skirt
G1 X160.150 Y55.862 E19.53160 ; skirt
G1 X161.740 Y57.614 E19.61883 ; skirt
G1 X181.040 Y87.614 E20.93410 ; skirt
G1 X181.981 Y89.810 E21.02217 ; skirt
G1 X182.182 Y91.500 E21.08493 ; skirt
G1 X182.182 Y143.500 E23.00224 ; skirt
G1 X181.785 Y145.855 E23.09032 ; skirt
G1 X180.638 Y147.950 E23.17839 ; skirt
G1 X178.866 Y149.553 E23.26647 ; skirt
G1 X176.667 Y150.486 E23.35454 ; skirt
G1 X175.000 Y150.682 E23.41644 ; skirt
G1 X75.000 Y150.682 E27.10357 ; skirt
G1 X72.645 Y150.285 E27.19165 ; skirt
G1 X70.550 Y149.138 E27.27972 ; skirt
G1 X68.947 Y147.366 E27.36780 ; skirt
G1 X68.014 Y145.167 E27.45587 ; skirt
G1 X67.818 Y143.500 E27.51778 ; skirt
G1 X67.818 Y61.500 E30.54122 ; skirt
G1 X68.215 Y59.145 E30.62930 ; skirt
G1 X69.337 Y57.096 E30.71544 ; skirt
G1 X69.656 Y57.156 F10800.000 ; move to first skirt point
G1 X71.418 Y55.618 E30.80167 F3600.000 ; skirt
G1 X73.592 Y54.759 E30.88790 ; skirt
G1 X75.000 Y54.613 E30.94007 ; skirt
G1 X155.700 Y54.613 E33.91559 ; skirt
G1 X158.005 Y55.010 E34.00182 ; skirt
G1 X160.044 Y56.156 E34.08805 ; skirt
G1 X161.492 Y57.774 E34.16811 ; skirt
G1 X180.792 Y87.774 E35.48339 ; skirt
G1 X181.705 Y89.927 E35.56962 ; skirt
G1 X181.887 Y91.500 E35.62800 ; skirt
G1 X181.887 Y143.500 E37.54531 ; skirt
G1 X181.490 Y145.805 E37.63154 ; skirt
G1 X180.344 Y147.844 E37.71777 ; skirt
G1 X178.582 Y149.382 E37.80400 ; skirt
G1 X176.408 Y150.241 E37.89023 ; skirt
G1 X175.000 Y150.387 E37.94241 ; skirt
G1 X75.000 Y150.387 E41.62953 ; skirt
G1 X72.695 Y149.990 E41.71576 ; skirt
G1 X70.656 Y148.844 E41.80200 ; skirt
G1 X69.118 Y147.082 E41.88823 ; skirt
G1 X68.259 Y144.908 E41.97446 ; skirt
G1 X68.113 Y143.500 E42.02663 ; skirt
G1 X68.113 Y61.500 E45.05008 ; skirt
G1 X68.510 Y59.195 E45.13631 ; skirt
G1 X69.630 Y57.202 E45.22060 ; skirt
G1 X69.949 Y57.266 F10800.000 ; move to first skirt point
G1 X71.700 Y55.794 E45.30495 F3600.000 ; skirt
G1 X73.849 Y55.010 E45.38929 ; skirt
G1 X75.000 Y54.909 E45.43189 ; skirt
G1 X155.700 Y54.909 E48.40740 ; skirt
G1 X157.953 Y55.306 E48.49174 ; skirt
G1 X159.934 Y56.449 E48.57609 ; skirt
G1 X161.243 Y57.934 E48.64908 ; skirt
G1 X180.543 Y87.934 E49.96435 ; skirt
G1 X181.428 Y90.043 E50.04870 ; skirt
G1 X181.591 Y91.500 E50.10274 ; skirt
G1 X181.591 Y143.500 E52.02005 ; skirt
G1 X181.194 Y145.753 E52.10439 ; skirt
G1 X180.051 Y147.734 E52.18874 ; skirt
G1 X178.300 Y149.206 E52.27309 ; skirt
G1 X176.151 Y149.990 E52.35743 ; skirt
G1 X175.000 Y150.091 E52.40002 ; skirt
G1 X75.000 Y150.091 E56.08715 ; skirt
G1 X72.747 Y149.694 E56.17150 ; skirt
G1 X70.766 Y148.551 E56.25584 ; skirt
G1 X69.294 Y146.800 E56.34019 ; skirt
G1 X68.510 Y144.651 E56.42454 ; skirt
G1 X68.409 Y143.500 E56.46713 ; skirt
G1 X68.409 Y61.500 E59.49057 ; skirt
G1 X68.806 Y59.247 E59.57492 ; skirt
G1 X69.923 Y57.311 E59.65733 ; skirt
G1 X70.242 Y57.378 F10800.000 ; move to first skirt point
G1 X71.982 Y55.975 E59.73975 F3600.000 ; skirt
G1 X75.000 Y55.204 E59.85460 ; skirt
G1 X155.700 Y55.204 E62.83011 ; skirt
G1 X157.900 Y55.601 E62.91253 ; skirt
G1 X159.822 Y56.742 E62.99494 ; skirt
G1 X160.995 Y58.094 E63.06093 ; skirt
G1 X180.295 Y88.094 E64.37620 ; skirt
G1 X181.151 Y90.159 E64.45862 ; skirt
G1 X181.296 Y91.500 E64.50837 ; skirt
G1 X181.296 Y143.500 E66.42568 ; skirt
G1 X180.899 Y145.700 E66.50809 ; skirt
G1 X179.758 Y147.622 E66.59051 ; skirt
G1 X178.018 Y149.025 E66.67293 ; skirt
G1 X175.000 Y149.796 E66.78778 ; skirt
G1 X75.000 Y149.796 E70.47491 ; skirt
G1 X72.800 Y149.399 E70.55733 ; skirt
G1 X70.878 Y148.258 E70.63974 ; skirt
G1 X69.475 Y146.518 E70.72216 ; skirt
G1 X68.704 Y143.500 E70.83701 ; skirt
G1 X68.704 Y61.500 E73.86046 ; skirt
G1 X69.101 Y59.300 E73.94287 ; skirt
G1 X70.215 Y57.423 E74.02336 ; skirt
G1 E72.52336 F2400.00000 ; retract
G92 E0 ; reset extrusion distance
G1 Z0.000 F10800.000 ; lift Z
G1 X75.500 Y65.028 F10800.000 ; move to first infill point
G1 Z-0.200 F10800.000 ; restore layer Z
G1 E1.50000 F2400.00000 ; unretract
G1 X75.500 Y62.172 E1.73351 F600.000 ; infill
G1 X75.530 Y62.030 E1.74542 ; infill
G1 X75.672 Y62.000 E1.75733 ; infill
G1 X78.528 Y62.000 E1.99084 ; infill
G1 X75.654 Y96.283 F10800.000 ; move to first infill point
G1 X76.073 Y96.635 E2.01109 F3000.000 ; infill
G1 X76.534 Y96.635 E2.02813 ; infill
G1 X75.654 Y95.896 E2.07062 ; infill
G1 X75.654 Y95.510 E2.08492 ; infill
G1 X76.995 Y96.635 E2.14965 ; infill
G1 X77.456 Y96.635 E2.16669 ; infill
G1 X75.654 Y95.123 E2.25368 ; infill
G1 X75.654 Y94.736 E2.26798 ; infill
G1 X77.917 Y96.635 E2.37721 ; infill
G1 X77.996 Y96.315 E2.38941 ; infill
G1 X75.654 Y94.349 E2.50245 ; infill
G1 X75.654 Y93.962 E2.51675 ; infill
G1 X77.996 Y95.928 E2.62978 ; infill
G1 X77.996 Y95.541 E2.64408 ; infill
G1 X75.654 Y93.575 E2.75712 ; infill
G1 X75.654 Y93.188 E2.77142 ; infill
G1 X77.996 Y95.154 E2.88445 ; infill
G1 X77.996 Y94.767 E2.89875 ; infill
G1 X75.654 Y92.802 E3.01179 ; infill
G1 X75.654 Y92.415 E3.02609 ; infill
G1 X77.996 Y94.380 E3.13912 ; infill
G1 X77.996 Y93.993 E3.15342 ; infill
G1 X75.654 Y92.028 E3.26646 ; infill
G1 X75.654 Y91.641 E3.28076 ; infill
G1 X77.996 Y93.607 E3.39379 ; infill
G1 X77.996 Y93.220 E3.40809 ; infill
G1 X75.654 Y91.254 E3.52113 ; infill
G1 X75.654 Y90.867 E3.53543 ; infill
G1 X77.996 Y92.833 E3.64846 ; infill
G1 X77.996 Y92.446 E3.66276 ; infill
G1 X75.654 Y90.480 E3.77579 ; infill
G1 X75.654 Y90.093 E3.79009 ; infill
G1 X77.996 Y92.059 E3.90313 ; infill
G1 X77.996 Y91.672 E3.91743 ; infill
G1 X75.654 Y89.707 E4.03046 ; infill
G1 X75.654 Y89.320 E4.04476 ; infill
G1 X77.996 Y91.285 E4.15780 ; infill
G1 X77.996 Y90.898 E4.17210 ; infill
G1 X75.654 Y88.933 E4.28513 ; infill
G1 X75.654 Y88.546 E4.29943 ; infill
G1 X77.996 Y90.512 E4.41247 ; infill
G1 X77.996 Y90.125 E4.42677 ; infill
G1 X75.654 Y88.159 E4.53980 ; infill
G1 X75.654 Y87.772 E4.55410 ; infill
G1 X77.996 Y89.738 E4.66714 ; infill
G1 X77.996 Y89.351 E4.68144 ; infill
G1 X75.654 Y87.385 E4.79447 ; infill
G1 X75.654 Y86.998 E4.80877 ; infill
G1 X77.996 Y88.964 E4.92181 ; infill
G1 X78.423 Y88.935 E4.93762 ; infill
G1 X75.654 Y86.612 E5.07124 ; infill
G1 X75.654 Y86.225 E5.08554 ; infill
G1 X78.884 Y88.935 E5.24142 ; infill
G1 X79.345 Y88.935 E5.25846 ; infill
G1 X75.654 Y85.838 E5.43658 ; infill
G1 X75.654 Y85.451 E5.45088 ; infill
G1 X79.806 Y88.935 E5.65125 ; infill
G1 X80.267 Y88.935 E5.66829 ; infill
G1 X75.654 Y85.064 E5.89090 ; infill
G1 X75.654 Y84.677 E5.90521 ; infill
G1 X80.728 Y88.935 E6.15007 ; infill
G1 X81.189 Y88.935 E6.16711 ; infill
G1 X75.654 Y84.290 E6.43422 ; infill
G1 X75.654 Y83.904 E6.44852 ; infill
G1 X81.650 Y88.935 E6.73787 ; infill
G1 X82.111 Y88.935 E6.75492 ; infill
G1 X75.654 Y83.517 E7.06652 ; infill
G1 X75.654 Y83.130 E7.08082 ; infill
G1 X82.573 Y88.935 E7.41467 ; infill
G1 X83.034 Y88.935 E7.43171 ; infill
G1 X75.654 Y82.743 E7.78781 ; infill
G1 X75.654 Y82.356 E7.80211 ; infill
G1 X83.495 Y88.935 E8.18045 ; infill
G1 X83.956 Y88.935 E8.19749 ; infill
G1 X75.654 Y81.969 E8.59809 ; infill
G1 X75.654 Y81.582 E8.61239 ; infill
G1 X84.417 Y88.935 E9.03522 ; infill
G1 X84.878 Y88.935 E9.05227 ; infill
G1 X75.654 Y81.195 E9.49735 ; infill
G1 X75.654 Y80.809 E9.51165 ; infill
G1 X85.339 Y88.935 E9.97898 ; infill
G1 X85.800 Y88.935 E9.99602 ; infill
G1 X75.654 Y80.422 E10.48560 ; infill
G1 X75.654 Y80.035 E10.49990 ; infill
G1 X86.261 Y88.935 E11.01173 ; infill
G1 X86.722 Y88.935 E11.02877 ; infill
G1 X75.654 Y79.648 E11.56284 ; infill
G1 X75.654 Y79.261 E11.57714 ; infill
G1 X87.183 Y88.935 E12.13346 ; infill
G1 X87.644 Y88.935 E12.15051 ; infill
G1 X75.654 Y78.874 E12.72907 ; infill
G1 X75.654 Y78.487 E12.74337 ; infill
G1 X88.105 Y88.935 E13.34419 ; infill
G1 X88.566 Y88.935 E13.36123 ; infill
G1 X75.654 Y78.100 E13.98429 ; infill
G1 X75.654 Y77.714 E13.99859 ; infill
G1 X89.027 Y88.935 E14.64390 ; infill
G1 X89.488 Y88.935 E14.66094 ; infill
G1 X75.654 Y77.327 E15.32850 ; infill
G1 X75.654 Y76.940 E15.34280 ; infill
G1 X89.949 Y88.935 E16.03260 ; infill
G1 X90.410 Y88.935 E16.04964 ; infill
G1 X75.654 Y76.553 E16.76169 ; infill
G1 X75.654 Y76.166 E16.77599 ; infill
G1 X90.871 Y88.935 E17.51029 ; infill
G1 X91.333 Y88.935 E17.52733 ; infill
G1 X75.654 Y75.779 E18.28387 ; infill
G1 X75.654 Y75.392 E18.29817 ; infill
G1 X91.794 Y88.935 E19.07696 ; infill
G1 X92.255 Y88.935 E19.09400 ; infill
G1 X75.654 Y75.006 E19.89504 ; infill
G1 X75.654 Y74.619 E19.90934 ; infill
G1 X92.716 Y88.935 E20.73263 ; infill
G1 X93.177 Y88.935 E20.74967 ; infill
G1 X75.654 Y74.232 E21.59520 ; infill
G1 X75.654 Y73.845 E21.60950 ; infill
G1 X93.638 Y88.935 E22.47728 ; infill
G1 X94.099 Y88.935 E22.49432 ; infill
G1 X75.654 Y73.458 E23.38435 ; infill
G1 X75.654 Y73.071 E23.39865 ; infill
G1 X94.560 Y88.935 E24.31092 ; infill
G1 X95.021 Y88.935 E24.32796 ; infill
G1 X75.654 Y72.684 E25.26248 ; infill
G1 X75.654 Y72.297 E25.27678 ; infill
G1 X95.482 Y88.935 E26.23355 ; infill
G1 X95.943 Y88.935 E26.25059 ; infill
G1 X75.654 Y71.911 E27.22960 ; infill
G1 X75.654 Y71.524 E27.24390 ; infill
G1 X96.404 Y88.935 E28.24516 ; infill
G1 X96.865 Y88.935 E28.26220 ; infill
G1 X75.654 Y71.137 E29.28571 ; infill
G1 X75.654 Y70.750 E29.30001 ; infill
G1 X97.326 Y88.935 E30.34577 ; infill
G1 X97.787 Y88.935 E30.36281 ; infill
G1 X75.654 Y70.363 E31.43081 ; infill
G1 X75.654 Y69.976 E31.44511 ; infill
G1 X98.248 Y88.935 E32.53536 ; infill
G1 X98.709 Y88.935 E32.55240 ; infill
G1 X75.654 Y69.589 E33.66489 ; infill
G1 X75.654 Y69.202 E33.67919 ; infill
G1 X99.170 Y88.935 E34.81394 ; infill
G1 X99.632 Y88.935 E34.83098 ; infill
G1 X75.654 Y68.816 E35.98797 ; infill
G1 X75.654 Y68.429 E36.00227 ; infill
G1 X100.093 Y88.935 E37.18151 ; infill
G1 X100.554 Y88.935 E37.19855 ; infill
G1 X75.654 Y68.042 E38.40003 ; infill
G1 X75.654 Y67.655 E38.41433 ; infill
G1 X101.015 Y88.935 E39.63806 ; infill
G1 X101.304 Y89.178 F10800.000 ; move to first infill point
G1 X165.250 Y142.835 E42.72364 F3000.000 ; infill
G1 X165.711 Y142.835 E42.74068 ; infill
G1 X75.654 Y67.268 E47.08619 ; infill
G1 X75.654 Y66.881 E47.10049 ; infill
G1 X166.172 Y142.835 E51.46824 ; infill
G1 X166.633 Y142.835 E51.48528 ; infill
G1 X75.654 Y66.494 E55.87528 ; infill
G1 X75.654 Y66.108 E55.88958 ; infill
G1 X167.094 Y142.835 E60.30183 ; infill
G1 X167.555 Y142.835 E60.31887 ; infill
G1 X75.654 Y65.721 E64.75337 ; infill
G1 X75.691 Y65.365 E64.76659 ; infill
G1 X168.017 Y142.835 E69.22156 ; infill
G1 X168.478 Y142.835 E69.23860 ; infill
G1 X76.152 Y65.365 E73.69357 ; infill
G1 X76.613 Y65.365 E73.71061 ; infill
G1 X168.939 Y142.835 E78.16557 ; infill
G1 X169.400 Y142.835 E78.18261 ; infill
G1 X77.074 Y65.365 E82.63758 ; infill
G1 X77.535 Y65.365 E82.65462 ; infill
G1 X169.861 Y142.835 E87.10959 ; infill
G1 X170.322 Y142.835 E87.12663 ; infill
G1 X77.996 Y65.365 E91.58159 ; infill
G1 X78.457 Y65.365 E91.59864 ; infill
G1 X170.783 Y142.835 E96.05360 ; infill
G1 X171.146 Y142.753 E96.06737 ; infill
G1 X78.854 Y65.311 E100.52072 ; infill
G1 X78.854 Y64.924 E100.53502 ; infill
G1 X171.146 Y142.367 E104.98837 ; infill
G1 X171.146 Y141.980 E105.00267 ; infill
G1 X78.854 Y64.537 E109.45603 ; infill
G1 X78.854 Y64.150 E109.47033 ; infill
G1 X171.146 Y141.593 E113.92368 ; infill
G1 X171.146 Y141.206 E113.93798 ; infill
G1 X78.854 Y63.763 E118.39133 ; infill
G1 X78.854 Y63.376 E118.40563 ; infill
G1 X171.146 Y140.819 E122.85898 ; infill
G1 X171.146 Y140.432 E122.87328 ; infill
G1 X78.854 Y62.990 E127.32663 ; infill
G1 X78.854 Y62.603 E127.34093 ; infill
G1 X171.146 Y140.045 E131.79429 ; infill
G1 X171.146 Y139.658 E131.80859 ; infill
G1 X78.854 Y62.216 E136.26194 ; infill
G1 X79.254 Y62.165 E136.27685 ; infill
G1 X171.580 Y139.635 E140.73181 ; infill
G1 X172.041 Y139.635 E140.74885 ; infill
G1 X79.715 Y62.165 E145.20382 ; infill
G1 X80.176 Y62.165 E145.22086 ; infill
G1 X172.502 Y139.635 E149.67582 ; infill
G1 X172.963 Y139.635 E149.69287 ; infill
G1 X80.637 Y62.165 E154.14783 ; infill
G1 X81.098 Y62.165 E154.16487 ; infill
G1 X173.424 Y139.635 E158.61984 ; infill
G1 X173.885 Y139.635 E158.63688 ; infill
G1 X81.559 Y62.165 E163.09184 ; infill
G1 X82.020 Y62.165 E163.10889 ; infill
G1 X174.325 Y139.617 E167.56282 ; infill
G1 X174.346 Y139.249 E167.57647 ; infill
G1 X82.481 Y62.165 E172.00919 ; infill
G1 X82.942 Y62.165 E172.02624 ; infill
G1 X174.346 Y138.862 E176.43672 ; infill
G1 X174.346 Y138.475 E176.45102 ; infill
G1 X83.403 Y62.165 E180.83925 ; infill
G1 X83.864 Y62.165 E180.85629 ; infill
G1 X174.346 Y138.088 E185.22228 ; infill
G1 X174.346 Y137.701 E185.23658 ; infill
G1 X84.325 Y62.165 E189.58032 ; infill
G1 X84.786 Y62.165 E189.59736 ; infill
G1 X174.346 Y137.314 E193.91885 ; infill
G1 X174.346 Y136.927 E193.93315 ; infill
G1 X85.247 Y62.165 E198.23240 ; infill
G1 X85.709 Y62.165 E198.24944 ; infill
G1 X174.346 Y136.541 E202.52644 ; infill
G1 X174.346 Y136.154 E202.54074 ; infill
