; generated by Slic3r 1.2.9 on 2016-03-19 at 21:56:29

; external perimeters extrusion width = 0.42mm
; perimeters extrusion width = 0.45mm
; infill extrusion width = 0.50mm
; solid infill extrusion width = 0.55mm
; top infill extrusion width = 0.50mm

M107 ; disable fan
;Startcode FELIXprinters
;Pre-initialize
;================================
G90 ; absolute mode
M107 ; Turn off fan

; Heat up heaters
;================================
; First start heating up, this will prevent damage, if previous print is still on the bed and 
; stuck to the hot-end
G90 ; Absolute positioning
M82 ; Extruder in absolute
M104 S205
M140 S60
M109 S205
M190 S60

; Move up head a little before homing to prevent collision with remainders of filament and bed.
;================================
G91 ; Make coordinates relative
G1 Z1 F200; Move up head a little to prevent tw mm (from current position because it is all relative now) 
G90 ; Use absolute coordinates again

; Home printer
;================================
G28 ; Home all axes

; Purge extruder by drawing 2 lines
;================================
G92 E0			; reset extruder
G1 Z1.0 F3000		; move z down little to prevent scratching of surface
G1 X20.0 Y0.1 Z0.3 F3000.0	; move to start-line position
G1 X200.0 Y0.1 Z0.3 F1500.0 E15	; draw 1st line
G1 X200.0 Y1 Z0.3 F3000.0	; move to side a little
G1 X20.0 Y1 Z0.3 F1500.0 E30	; draw 2nd line
G1 E28.5 F3000		; retract filament 1.5mm
G92 E0					; reset extruder
; done purging
M117 Done purging

; Post-initialize
;================================
M106 ; Turn on fans
M117 FELIXprinting...
G21 ; set units to millimeters
G90 ; use absolute coordinates
M82 ; use absolute distances for extrusion
G92 E0 ; reset extrusion distance
G1 E-1.50000 F2400.00000 ; retract
G92 E0 ; reset extrusion distance
G1 Z-0.300 F10800.000 ; lift Z
G1 Z-0.200 F10800.000 ; move to next layer (0)
G1 Z0.000 F10800.000 ; lift Z
G1 X69.069 Y56.945 F10800.000 ; move to first skirt point
G1 Z-0.200 F10800.000 ; restore layer Z
G1 E1.50000 F2400.00000 ; unretract
G1 X70.849 Y55.280 E1.58988 F3600.000 ; skirt
G1 X73.070 Y54.275 E1.67976 ; skirt
G1 X75.000 Y54.022 E1.75153 ; skirt
G1 X155.700 Y54.022 E4.72705 ; skirt
G1 X158.105 Y54.419 E4.81693 ; skirt
G1 X160.255 Y55.569 E4.90681 ; skirt
G1 X161.989 Y57.454 E5.00126 ; skirt
G1 X181.289 Y87.454 E6.31653 ; skirt
G1 X182.256 Y89.692 E6.40641 ; skirt
G1 X182.478 Y91.500 E6.47358 ; skirt
G1 X182.478 Y143.500 E8.39089 ; skirt
G1 X182.081 Y145.905 E8.48077 ; skirt
G1 X180.931 Y148.055 E8.57066 ; skirt
G1 X179.151 Y149.720 E8.66054 ; skirt
G1 X176.930 Y150.725 E8.75042 ; skirt
G1 X175.000 Y150.978 E8.82219 ; skirt
G1 X75.000 Y150.978 E12.50932 ; skirt
G1 X72.595 Y150.581 E12.59920 ; skirt
G1 X70.445 Y149.431 E12.68908 ; skirt
G1 X68.780 Y147.651 E12.77896 ; skirt
G1 X67.775 Y145.430 E12.86884 ; skirt
G1 X67.522 Y143.500 E12.94061 ; skirt
G1 X67.522 Y61.500 E15.96406 ; skirt
G1 X67.919 Y59.095 E16.05394 ; skirt
G1 X69.044 Y56.992 E16.14189 ; skirt
G1 X69.362 Y57.050 F10800.000 ; move to first skirt point
G1 X71.134 Y55.447 E16.22996 F3600.000 ; skirt
G1 X73.333 Y54.514 E16.31804 ; skirt
G1 X75.000 Y54.318 E16.37994 ; skirt
G1 X155.700 Y54.318 E19.35545 ; skirt
G1 X158.055 Y54.715 E19.44353 ; skirt
G1 X160.150 Y55.862 E19.53160 ; skirt
G1 X161.740 Y57.614 E19.61883 ; skirt
G1 X181.040 Y87.614 E20.93410 ; skirt
G1 X181.981 Y89.810 E21.02217 ; skirt
G1 X182.182 Y91.500 E21.08493 ; skirt
G1 X182.182 Y143.500 E23.00224 ; skirt
G1 X181.785 Y145.855 E23.09032 ; skirt
G1 X180.638 Y147.950 E23.17839 ; skirt
G1 X178.866 Y149.553 E23.26647 ; skirt
G1 X176.667 Y150.486 E23.35454 ; skirt
G1 X175.000 Y150.682 E23.41644 ; skirt
G1 X75.000 Y150.682 E27.10357 ; skirt
G1 X72.645 Y150.285 E27.19165 ; skirt
G1 X70.550 Y149.138 E27.27972 ; skirt
G1 X68.947 Y147.366 E27.36780 ; skirt
G1 X68.014 Y145.167 E27.45587 ; skirt
G1 X67.818 Y143.500 E27.51778 ; skirt
G1 X67.818 Y61.500 E30.54122 ; skirt
G1 X68.215 Y59.145 E30.62930 ; skirt
G1 X69.337 Y57.096 E30.71544 ; skirt
G1 X69.656 Y57.156 F10800.000 ; move to first skirt point
G1 X71.418 Y55.618 E30.80167 F3600.000 ; skirt
G1 X73.592 Y54.759 E30.88790 ; skirt
G1 X75.000 Y54.613 E30.94007 ; skirt
G1 X155.700 Y54.613 E33.91559 ; skirt
G1 X158.005 Y55.010 E34.00182 ; skirt
G1 X160.044 Y56.156 E34.08805 ; skirt
G1 X161.492 Y57.774 E34.16811 ; skirt
G1 X180.792 Y87.774 E35.48339 ; skirt
G1 X181.705 Y89.927 E35.56962 ; skirt
G1 X181.887 Y91.500 E35.62800 ; skirt
G1 X181.887 Y143.500 E37.54531 ; skirt
G1 X181.490 Y145.805 E37.63154 ; skirt
G1 X180.344 Y147.844 E37.71777 ; skirt
G1 X178.582 Y149.382 E37.80400 ; skirt
G1 X176.408 Y150.241 E37.89023 ; skirt
G1 X175.000 Y150.387 E37.94241 ; skirt
G1 X75.000 Y150.387 E41.62953 ; skirt
G1 X72.695 Y149.990 E41.71576 ; skirt
G1 X70.656 Y148.844 E41.80200 ; skirt
G1 X69.118 Y147.082 E41.88823 ; skirt
G1 X68.259 Y144.908 E41.97446 ; skirt
G1 X68.113 Y143.500 E42.02663 ; skirt
G1 X68.113 Y61.500 E45.05008 ; skirt
G1 X68.510 Y59.195 E45.13631 ; skirt
G1 X69.630 Y57.202 E45.22060 ; skirt
G1 X69.949 Y57.266 F10800.000 ; move to first skirt point
G1 X71.700 Y55.794 E45.30495 F3600.000 ; skirt
G1 X73.849 Y55.010 E45.38929 ; skirt
G1 X75.000 Y54.909 E45.43189 ; skirt
G1 X155.700 Y54.909 E48.40740 ; skirt
G1 X157.953 Y55.306 E48.49174 ; skirt
G1 X159.934 Y56.449 E48.57609 ; skirt
G1 X161.243 Y57.934 E48.64908 ; skirt
G1 X180.543 Y87.934 E49.96435 ; skirt
G1 X181.428 Y90.043 E50.04870 ; skirt
G1 X181.591 Y91.500 E50.10274 ; skirt
G1 X181.591 Y143.500 E52.02005 ; skirt
G1 X181.194 Y145.753 E52.10439 ; skirt
G1 X180.051 Y147.734 E52.18874 ; skirt
G1 X178.300 Y149.206 E52.27309 ; skirt
G1 X176.151 Y149.990 E52.35743 ; skirt
G1 X175.000 Y150.091 E52.40002 ; skirt
G1 X75.000 Y150.091 E56.08715 ; skirt
G1 X72.747 Y149.694 E56.17150 ; skirt
G1 X70.766 Y148.551 E56.25584 ; skirt
G1 X69.294 Y146.800 E56.34019 ; skirt
G1 X68.510 Y144.651 E56.42454 ; skirt
G1 X68.409 Y143.500 E56.46713 ; skirt
G1 X68.409 Y61.500 E59.49057 ; skirt
G1 X68.806 Y59.247 E59.57492 ; skirt
G1 X69.923 Y57.311 E59.65733 ; skirt
G1 X70.242 Y57.378 F10800.000 ; move to first skirt point
G1 X71.982 Y55.975 E59.73975 F3600.000 ; skirt
G1 X75.000 Y55.204 E59.85460 ; skirt
G1 X155.700 Y55.204 E62.83011 ; skirt
G1 X157.900 Y55.601 E62.91253 ; skirt
G1 X159.822 Y56.742 E62.99494 ; skirt
G1 X160.995 Y58.094 E63.06093 ; skirt
G1 X180.295 Y88.094 E64.37620 ; skirt
G1 X181.151 Y90.159 E64.45862 ; skirt
G1 X181.296 Y91.500 E64.50837 ; skirt
G1 X181.296 Y143.500 E66.42568 ; skirt
G1 X180.899 Y145.700 E66.50809 ; skirt
G1 X179.758 Y147.622 E66.59051 ; skirt
G1 X178.018 Y149.025 E66.67293 ; skirt
G1 X175.000 Y149.796 E66.78778 ; skirt
G1 X75.000 Y149.796 E70.47491 ; skirt
G1 X72.800 Y149.399 E70.55733 ; skirt
G1 X70.878 Y148.258 E70.63974 ; skirt
G1 X69.475 Y146.518 E70.72216 ; skirt
G1 X68.704 Y143.500 E70.83701 ; skirt
G1 X68.704 Y61.500 E73.86046 ; skirt
G1 X69.101 Y59.300 E73.94287 ; skirt
G1 X70.215 Y57.423 E74.02336 ; skirt
G1 E72.52336 F2400.00000 ; retract
G92 E0 ; reset extrusion distance
G1 Z0.000 F10800.000 ; lift Z
G1 X75.500 Y65.028 F10800.000 ; move to first infill point
G1 Z-0.200 F10800.000 ; restore layer Z
G1 E1.50000 F2400.00000 ; unretract
G1 X75.500 Y62.172 E1.73351 F600.000 ; infill
G1 X75.530 Y62.030 E1.74542 ; infill
G1 X75.672 Y62.000 E1.75733 ; infill
G1 X78.528 Y62.000 E1.99084 ; infill
G1 X100.568 Y88.935 F10800.000 ; move to first infill point
G1 X75.654 Y68.030 E3.19319 F3000.000 ; infill
G1 X75.654 Y68.417 E3.20750 ; infill
G1 X100.106 Y88.935 E4.38759 ; infill
G1 X99.645 Y88.935 E4.40464 ; infill
G1 X75.654 Y68.804 E5.56248 ; infill
G1 X75.654 Y69.191 E5.57679 ; infill
G1 X99.184 Y88.935 E6.71238 ; infill
G1 X98.723 Y88.935 E6.72942 ; infill
G1 X75.654 Y69.578 E7.84276 ; infill
G1 X75.654 Y69.965 E7.85706 ; infill
G1 X98.262 Y88.935 E8.94814 ; infill
G1 X97.801 Y88.935 E8.96519 ; infill
G1 X75.654 Y70.352 E10.03401 ; infill
G1 X75.654 Y70.739 E10.04832 ; infill
G1 X97.340 Y88.935 E11.09489 ; infill
G1 X96.879 Y88.935 E11.11193 ; infill
G1 X75.654 Y71.126 E12.13625 ; infill
G1 X75.654 Y71.513 E12.15055 ; infill
G1 X96.417 Y88.935 E13.15262 ; infill
G1 X95.956 Y88.935 E13.16966 ; infill
G1 X75.654 Y71.900 E14.14947 ; infill
G1 X75.654 Y72.286 E14.16378 ; infill
G1 X95.495 Y88.935 E15.12133 ; infill
G1 X95.034 Y88.935 E15.13838 ; infill
G1 X75.654 Y72.673 E16.07368 ; infill
G1 X75.654 Y73.060 E16.08798 ; infill
G1 X94.573 Y88.935 E17.00103 ; infill
G1 X94.112 Y88.935 E17.01807 ; infill
G1 X75.654 Y73.447 E17.90886 ; infill
G1 X75.654 Y73.834 E17.92317 ; infill
G1 X93.651 Y88.935 E18.79171 ; infill
G1 X93.189 Y88.935 E18.80875 ; infill
G1 X75.654 Y74.221 E19.65504 ; infill
G1 X75.654 Y74.608 E19.66934 ; infill
G1 X92.728 Y88.935 E20.49337 ; infill
G1 X92.267 Y88.935 E20.51042 ; infill
G1 X75.654 Y74.995 E21.31219 ; infill
G1 X75.654 Y75.382 E21.32649 ; infill
G1 X91.806 Y88.935 E22.10601 ; infill
G1 X91.345 Y88.935 E22.12306 ; infill
G1 X75.654 Y75.769 E22.88033 ; infill
G1 X75.654 Y76.156 E22.89463 ; infill
G1 X90.884 Y88.935 E23.62964 ; infill
G1 X90.423 Y88.935 E23.64669 ; infill
G1 X75.654 Y76.543 E24.35945 ; infill
G1 X75.654 Y76.930 E24.37375 ; infill
G1 X89.962 Y88.935 E25.06425 ; infill
G1 X89.500 Y88.935 E25.08130 ; infill
G1 X75.654 Y77.317 E25.74955 ; infill
G1 X75.654 Y77.703 E25.76385 ; infill
G1 X89.039 Y88.935 E26.40985 ; infill
G1 X88.578 Y88.935 E26.42690 ; infill
G1 X75.654 Y78.090 E27.05064 ; infill
G1 X75.654 Y78.477 E27.06494 ; infill
G1 X88.117 Y88.935 E27.66643 ; infill
G1 X87.656 Y88.935 E27.68347 ; infill
G1 X75.654 Y78.864 E28.26270 ; infill
G1 X75.654 Y79.251 E28.27701 ; infill
G1 X87.195 Y88.935 E28.83399 ; infill
G1 X86.734 Y88.935 E28.85103 ; infill
G1 X75.654 Y79.638 E29.38576 ; infill
G1 X75.654 Y80.025 E29.40006 ; infill
G1 X86.273 Y88.935 E29.91253 ; infill
G1 X85.811 Y88.935 E29.92958 ; infill
G1 X75.654 Y80.412 E30.41979 ; infill
G1 X75.654 Y80.799 E30.43410 ; infill
G1 X85.350 Y88.935 E30.90206 ; infill
G1 X84.889 Y88.935 E30.91911 ; infill
G1 X75.654 Y81.186 E31.36481 ; infill
G1 X75.654 Y81.573 E31.37912 ; infill
G1 X84.428 Y88.935 E31.80257 ; infill
G1 X83.967 Y88.935 E31.81962 ; infill
G1 X75.654 Y81.960 E32.22081 ; infill
G1 X75.654 Y82.347 E32.23512 ; infill
G1 X83.506 Y88.935 E32.61406 ; infill
G1 X83.045 Y88.935 E32.63111 ; infill
G1 X75.654 Y82.734 E32.98780 ; infill
G1 X75.654 Y83.121 E33.00210 ; infill
G1 X82.584 Y88.935 E33.33654 ; infill
G1 X82.122 Y88.935 E33.35358 ; infill
G1 X75.654 Y83.507 E33.66577 ; infill
G1 X75.654 Y83.894 E33.68007 ; infill
G1 X81.661 Y88.935 E33.97000 ; infill
G1 X81.200 Y88.935 E33.98704 ; infill
G1 X75.654 Y84.281 E34.25472 ; infill
G1 X75.654 Y84.668 E34.26902 ; infill
G1 X80.739 Y88.935 E34.51444 ; infill
G1 X80.278 Y88.935 E34.53149 ; infill
G1 X75.654 Y85.055 E34.75465 ; infill
G1 X75.654 Y85.442 E34.76895 ; infill
G1 X79.817 Y88.935 E34.96986 ; infill
G1 X79.356 Y88.935 E34.98691 ; infill
G1 X75.654 Y85.829 E35.16557 ; infill
G1 X75.654 Y86.216 E35.17987 ; infill
G1 X78.894 Y88.935 E35.33627 ; infill
G1 X78.433 Y88.935 E35.35332 ; infill
G1 X75.654 Y86.603 E35.48747 ; infill
G1 X75.654 Y86.990 E35.50177 ; infill
G1 X77.996 Y88.956 E35.61482 ; infill
G1 X77.996 Y89.342 E35.62913 ; infill
G1 X75.654 Y87.377 E35.74218 ; infill
G1 X75.654 Y87.764 E35.75649 ; infill
G1 X77.996 Y89.729 E35.86954 ; infill
G1 X77.996 Y90.116 E35.88384 ; infill
G1 X75.654 Y88.151 E35.99690 ; infill
G1 X75.654 Y88.538 E36.01120 ; infill
G1 X77.996 Y90.503 E36.12426 ; infill
G1 X77.996 Y90.890 E36.13856 ; infill
G1 X75.654 Y88.925 E36.25161 ; infill
G1 X75.654 Y89.311 E36.26592 ; infill
G1 X77.996 Y91.277 E36.37897 ; infill
G1 X77.996 Y91.664 E36.39328 ; infill
G1 X75.654 Y89.698 E36.50633 ; infill
G1 X75.654 Y90.085 E36.52063 ; infill
G1 X77.996 Y92.051 E36.63369 ; infill
G1 X77.996 Y92.438 E36.64799 ; infill
G1 X75.654 Y90.472 E36.76104 ; infill
G1 X75.654 Y90.859 E36.77535 ; infill
G1 X77.996 Y92.825 E36.88840 ; infill
G1 X77.996 Y93.212 E36.90271 ; infill
G1 X75.654 Y91.246 E37.01576 ; infill
G1 X75.654 Y91.633 E37.03006 ; infill
G1 X77.996 Y93.599 E37.14312 ; infill
G1 X77.996 Y93.986 E37.15742 ; infill
G1 X75.654 Y92.020 E37.27047 ; infill
G1 X75.654 Y92.407 E37.28478 ; infill
G1 X77.996 Y94.373 E37.39783 ; infill
G1 X77.996 Y94.760 E37.41214 ; infill
G1 X75.654 Y92.794 E37.52519 ; infill
G1 X75.654 Y93.181 E37.53949 ; infill
G1 X77.996 Y95.146 E37.65255 ; infill
G1 X77.996 Y95.533 E37.66685 ; infill
G1 X75.654 Y93.568 E37.77990 ; infill
G1 X75.654 Y93.955 E37.79421 ; infill
G1 X77.996 Y95.920 E37.90726 ; infill
G1 X77.996 Y96.307 E37.92157 ; infill
G1 X75.654 Y94.342 E38.03462 ; infill
G1 X75.654 Y94.729 E38.04892 ; infill
G1 X77.996 Y96.694 E38.16198 ; infill
G1 X77.996 Y97.081 E38.17628 ; infill
G1 X75.654 Y95.115 E38.28933 ; infill
G1 X75.654 Y95.502 E38.30364 ; infill
G1 X77.996 Y97.468 E38.41669 ; infill
G1 X77.996 Y97.855 E38.43100 ; infill
G1 X75.654 Y95.889 E38.54405 ; infill
G1 X75.654 Y96.276 E38.55835 ; infill
G1 X77.996 Y98.242 E38.67141 ; infill
G1 X77.996 Y98.629 E38.68571 ; infill
G1 X75.654 Y96.663 E38.79876 ; infill
G1 X75.654 Y97.050 E38.81307 ; infill
G1 X77.996 Y99.016 E38.92612 ; infill
G1 X77.996 Y99.403 E38.94043 ; infill
G1 X75.654 Y97.437 E39.05348 ; infill
G1 X75.654 Y97.824 E39.06778 ; infill
G1 X77.996 Y99.790 E39.18084 ; infill
G1 X77.996 Y100.177 E39.19514 ; infill
G1 X75.654 Y98.211 E39.30819 ; infill
G1 X75.654 Y98.598 E39.32250 ; infill
G1 X77.996 Y100.564 E39.43555 ; infill
G1 X77.996 Y100.950 E39.44986 ; infill
G1 X75.654 Y98.985 E39.56291 ; infill
G1 X75.654 Y99.372 E39.57721 ; infill
G1 X77.996 Y101.337 E39.69027 ; infill
G1 X77.996 Y101.724 E39.70457 ; infill
G1 X75.654 Y99.759 E39.81763 ; infill
G1 X75.654 Y100.146 E39.83193 ; infill
G1 X77.996 Y102.111 E39.94498 ; infill
G1 X77.996 Y102.498 E39.95929 ; infill
G1 X75.654 Y100.533 E40.07234 ; infill
G1 X75.654 Y100.919 E40.08665 ; infill
G1 X77.996 Y102.885 E40.19970 ; infill
G1 X77.996 Y103.272 E40.21400 ; infill
G1 X75.654 Y101.306 E40.32706 ; infill
G1 X75.654 Y101.693 E40.34136 ; infill
G1 X77.996 Y103.659 E40.45441 ; infill
G1 X77.996 Y104.046 E40.46872 ; infill
G1 X75.654 Y102.080 E40.58177 ; infill
G1 X75.654 Y102.467 E40.59608 ; infill
G1 X77.996 Y104.433 E40.70913 ; infill
G1 X77.996 Y104.820 E40.72343 ; infill
G1 X75.654 Y102.854 E40.83649 ; infill
G1 X75.654 Y103.241 E40.85079 ; infill
G1 X77.996 Y105.207 E40.96384 ; infill
G1 X77.996 Y105.594 E40.97815 ; infill
G1 X75.654 Y103.628 E41.09120 ; infill
G1 X75.654 Y104.015 E41.10551 ; infill
G1 X77.996 Y105.981 E41.21856 ; infill
G1 X77.996 Y106.367 E41.23286 ; infill
G1 X75.654 Y104.402 E41.34592 ; infill
G1 X75.654 Y104.789 E41.36022 ; infill
G1 X77.996 Y106.754 E41.47327 ; infill
G1 X77.996 Y107.141 E41.48758 ; infill
G1 X75.654 Y105.176 E41.60063 ; infill
G1 X75.654 Y105.563 E41.61494 ; infill
G1 X77.996 Y107.528 E41.72799 ; infill
G1 X77.996 Y107.915 E41.74229 ; infill
G1 X75.654 Y105.950 E41.85535 ; infill
G1 X75.654 Y106.337 E41.86965 ; infill
G1 X77.996 Y108.302 E41.98270 ; infill
G1 X77.996 Y108.689 E41.99701 ; infill
G1 X75.654 Y106.723 E42.11006 ; infill
G1 X75.654 Y107.110 E42.12437 ; infill
G1 X77.996 Y109.076 E42.23742 ; infill
G1 X77.996 Y109.463 E42.25172 ; infill
G1 X75.654 Y107.497 E42.36478 ; infill
G1 X75.654 Y107.884 E42.37908 ; infill
G1 X77.996 Y109.850 E42.49214 ; infill
G1 X77.996 Y110.237 E42.50644 ; infill
G1 X75.654 Y108.271 E42.61949 ; infill
G1 X75.654 Y108.658 E42.63380 ; infill
G1 X77.996 Y110.624 E42.74685 ; infill
G1 X77.996 Y111.011 E42.76116 ; infill
G1 X75.654 Y109.045 E42.87421 ; infill
G1 X75.654 Y109.432 E42.88851 ; infill
G1 X77.996 Y111.398 E43.00157 ; infill
G1 X77.996 Y111.785 E43.01587 ; infill
G1 X75.654 Y109.819 E43.12892 ; infill
G1 X75.654 Y110.206 E43.14323 ; infill
G1 X77.996 Y112.171 E43.25628 ; infill
G1 X101.164 Y112.265 F10800.000 ; move to first infill point
G1 X137.596 Y142.835 E45.01454 F3000.000 ; infill
G1 X137.135 Y142.835 E45.03159 ; infill
G1 X100.703 Y112.265 E46.78984 ; infill
