; generated by Slic3r 1.2.9 on 2016-03-19 at 22:15:48

; external perimeters extrusion width = 0.42mm
; perimeters extrusion width = 0.45mm
; infill extrusion width = 0.50mm
; solid infill extrusion width = 0.55mm
; top infill extrusion width = 0.50mm

M107 ; disable fan
;Startcode FELIXprinters
;Pre-initialize
;================================
G90 ; absolute mode
M107 ; Turn off fan

; Heat up heaters
;================================
; First start heating up, this will prevent damage, if previous print is still on the bed and 
; stuck to the hot-end
G90 ; Absolute positioning
M82 ; Extruder in absolute
M104 S205
M140 S60
M109 S205
M190 S60

; Move up head a little before homing to prevent collision with remainders of filament and bed.
;================================
G91 ; Make coordinates relative
G1 Z1 F200; Move up head a little to prevent tw mm (from current position because it is all relative now) 
G90 ; Use absolute coordinates again

; Home printer
;================================
G28 ; Home all axes

; Purge extruder by drawing 2 lines
;================================
G92 E0			; reset extruder
G1 Z1.0 F3000		; move z down little to prevent scratching of surface
G1 X20.0 Y0.1 Z0.3 F3000.0	; move to start-line position
G1 X200.0 Y0.1 Z0.3 F1500.0 E15	; draw 1st line
G1 X200.0 Y1 Z0.3 F3000.0	; move to side a little
G1 X20.0 Y1 Z0.3 F1500.0 E30	; draw 2nd line
G1 E28.5 F3000		; retract filament 1.5mm
G92 E0					; reset extruder
; done purging
M117 Done purging

; Post-initialize
;================================
M106 ; Turn on fans
M117 FELIXprinting...
G21 ; set units to millimeters
G90 ; use absolute coordinates
M82 ; use absolute distances for extrusion
G92 E0 ; reset extrusion distance
G1 E-1.50000 F2400.00000 ; retract
G92 E0 ; reset extrusion distance
G1 Z-0.300 F10800.000 ; lift Z
G1 Z-0.200 F10800.000 ; move to next layer (0)
G1 Z0.000 F10800.000 ; lift Z
G1 X69.069 Y56.945 F10800.000 ; move to first skirt point
G1 Z-0.200 F10800.000 ; restore layer Z
G1 E1.50000 F2400.00000 ; unretract
G1 X70.849 Y55.280 E1.58988 F3600.000 ; skirt
G1 X73.070 Y54.275 E1.67976 ; skirt
G1 X75.000 Y54.022 E1.75153 ; skirt
G1 X155.700 Y54.022 E4.72705 ; skirt
G1 X158.105 Y54.419 E4.81693 ; skirt
G1 X160.255 Y55.569 E4.90681 ; skirt
G1 X161.989 Y57.454 E5.00126 ; skirt
G1 X181.289 Y87.454 E6.31653 ; skirt
G1 X182.256 Y89.692 E6.40641 ; skirt
G1 X182.478 Y91.500 E6.47358 ; skirt
G1 X182.478 Y143.500 E8.39089 ; skirt
G1 X182.081 Y145.905 E8.48077 ; skirt
G1 X180.931 Y148.055 E8.57066 ; skirt
G1 X179.151 Y149.720 E8.66054 ; skirt
G1 X176.930 Y150.725 E8.75042 ; skirt
G1 X175.083 Y150.978 E8.81915 ; skirt
G1 X96.803 Y151.846 E11.70561 ; skirt
G1 X74.701 Y150.972 E12.52118 ; skirt
G1 X72.314 Y150.479 E12.61106 ; skirt
G1 X70.212 Y149.244 E12.70094 ; skirt
G1 X68.619 Y147.399 E12.79082 ; skirt
G1 X67.704 Y145.140 E12.88070 ; skirt
G1 X67.522 Y143.500 E12.94153 ; skirt
G1 X67.522 Y61.500 E15.96497 ; skirt
G1 X67.919 Y59.095 E16.05486 ; skirt
G1 X69.044 Y56.992 E16.14280 ; skirt
G1 X69.362 Y57.050 F10800.000 ; move to first skirt point
G1 X71.134 Y55.447 E16.23088 F3600.000 ; skirt
G1 X73.333 Y54.514 E16.31895 ; skirt
G1 X75.000 Y54.318 E16.38086 ; skirt
G1 X155.700 Y54.318 E19.35637 ; skirt
G1 X158.055 Y54.715 E19.44444 ; skirt
G1 X160.150 Y55.862 E19.53252 ; skirt
G1 X161.740 Y57.614 E19.61974 ; skirt
G1 X181.040 Y87.614 E20.93501 ; skirt
G1 X181.981 Y89.810 E21.02309 ; skirt
G1 X182.182 Y91.500 E21.08585 ; skirt
G1 X182.182 Y143.500 E23.00316 ; skirt
G1 X181.785 Y145.855 E23.09123 ; skirt
G1 X180.638 Y147.950 E23.17931 ; skirt
G1 X178.866 Y149.553 E23.26738 ; skirt
G1 X176.667 Y150.486 E23.35546 ; skirt
G1 X175.080 Y150.682 E23.41444 ; skirt
G1 X96.800 Y151.551 E26.30090 ; skirt
G1 X74.713 Y150.677 E27.11591 ; skirt
G1 X72.375 Y150.186 E27.20398 ; skirt
G1 X70.328 Y148.955 E27.29206 ; skirt
G1 X68.797 Y147.121 E27.38013 ; skirt
G1 X67.953 Y144.887 E27.46821 ; skirt
G1 X67.818 Y143.500 E27.51959 ; skirt
G1 X67.818 Y61.500 E30.54303 ; skirt
G1 X68.215 Y59.145 E30.63111 ; skirt
G1 X69.337 Y57.096 E30.71725 ; skirt
G1 X69.656 Y57.156 F10800.000 ; move to first skirt point
G1 X71.418 Y55.618 E30.80348 F3600.000 ; skirt
G1 X73.592 Y54.759 E30.88971 ; skirt
G1 X75.000 Y54.613 E30.94188 ; skirt
G1 X155.700 Y54.613 E33.91740 ; skirt
G1 X158.005 Y55.010 E34.00363 ; skirt
G1 X160.044 Y56.156 E34.08986 ; skirt
G1 X161.492 Y57.774 E34.16992 ; skirt
G1 X180.792 Y87.774 E35.48520 ; skirt
G1 X181.705 Y89.927 E35.57143 ; skirt
G1 X181.887 Y91.500 E35.62981 ; skirt
G1 X181.887 Y143.500 E37.54712 ; skirt
G1 X181.490 Y145.805 E37.63335 ; skirt
G1 X180.344 Y147.844 E37.71958 ; skirt
G1 X178.582 Y149.382 E37.80581 ; skirt
G1 X176.408 Y150.241 E37.89204 ; skirt
G1 X175.076 Y150.386 E37.94141 ; skirt
G1 X96.797 Y151.255 E40.82787 ; skirt
G1 X74.725 Y150.381 E41.64232 ; skirt
G1 X72.438 Y149.892 E41.72855 ; skirt
G1 X70.446 Y148.666 E41.81478 ; skirt
G1 X68.980 Y146.845 E41.90101 ; skirt
G1 X68.113 Y143.500 E42.02840 ; skirt
G1 X68.113 Y61.500 E45.05185 ; skirt
G1 X68.510 Y59.195 E45.13808 ; skirt
G1 X69.630 Y57.202 E45.22238 ; skirt
G1 X69.949 Y57.266 F10800.000 ; move to first skirt point
G1 X71.700 Y55.794 E45.30672 F3600.000 ; skirt
G1 X73.849 Y55.010 E45.39107 ; skirt
G1 X75.000 Y54.909 E45.43366 ; skirt
G1 X155.700 Y54.909 E48.40917 ; skirt
G1 X157.953 Y55.306 E48.49352 ; skirt
G1 X159.934 Y56.449 E48.57786 ; skirt
G1 X161.243 Y57.934 E48.65085 ; skirt
G1 X180.543 Y87.934 E49.96612 ; skirt
G1 X181.428 Y90.043 E50.05047 ; skirt
G1 X181.591 Y91.500 E50.10451 ; skirt
G1 X181.591 Y143.500 E52.02182 ; skirt
G1 X181.194 Y145.753 E52.10617 ; skirt
G1 X180.051 Y147.734 E52.19051 ; skirt
G1 X178.300 Y149.206 E52.27486 ; skirt
G1 X175.073 Y150.091 E52.39822 ; skirt
G1 X96.793 Y150.960 E55.28467 ; skirt
G1 X74.737 Y150.086 E56.09857 ; skirt
G1 X72.501 Y149.599 E56.18292 ; skirt
G1 X70.567 Y148.378 E56.26727 ; skirt
G1 X69.167 Y146.569 E56.35161 ; skirt
G1 X68.409 Y143.500 E56.46817 ; skirt
G1 X68.409 Y61.500 E59.49162 ; skirt
G1 X68.806 Y59.247 E59.57596 ; skirt
G1 X69.923 Y57.311 E59.65837 ; skirt
G1 X70.242 Y57.378 F10800.000 ; move to first skirt point
G1 X71.982 Y55.975 E59.74079 F3600.000 ; skirt
G1 X75.000 Y55.204 E59.85564 ; skirt
G1 X155.700 Y55.204 E62.83115 ; skirt
G1 X157.900 Y55.601 E62.91357 ; skirt
G1 X159.822 Y56.742 E62.99599 ; skirt
G1 X160.995 Y58.094 E63.06197 ; skirt
G1 X180.295 Y88.094 E64.37724 ; skirt
G1 X181.151 Y90.159 E64.45966 ; skirt
G1 X181.296 Y91.500 E64.50941 ; skirt
G1 X181.296 Y143.500 E66.42672 ; skirt
G1 X180.899 Y145.700 E66.50914 ; skirt
G1 X179.758 Y147.622 E66.59155 ; skirt
G1 X178.018 Y149.025 E66.67397 ; skirt
G1 X175.070 Y149.795 E66.78632 ; skirt
G1 X96.790 Y150.664 E69.67278 ; skirt
G1 X74.748 Y149.791 E70.48612 ; skirt
G1 X72.566 Y149.306 E70.56854 ; skirt
G1 X70.691 Y148.090 E70.65096 ; skirt
G1 X69.359 Y146.295 E70.73337 ; skirt
G1 X68.704 Y143.500 E70.83921 ; skirt
G1 X68.704 Y61.500 E73.86266 ; skirt
G1 X69.101 Y59.300 E73.94507 ; skirt
G1 X70.215 Y57.423 E74.02556 ; skirt
G1 E72.52556 F2400.00000 ; retract
G92 E0 ; reset extrusion distance
G1 Z0.000 F10800.000 ; lift Z
G1 X75.500 Y65.028 F10800.000 ; move to first infill point
G1 Z-0.200 F10800.000 ; restore layer Z
G1 E1.50000 F2400.00000 ; unretract
G1 X75.500 Y62.172 E1.73351 F600.000 ; infill
G1 X75.530 Y62.030 E1.74542 ; infill
G1 X75.672 Y62.000 E1.75733 ; infill
G1 X78.528 Y62.000 E1.99084 ; infill
G1 X78.854 Y65.194 F10800.000 ; move to first infill point
G1 X171.146 Y142.637 E6.43771 F3000.000 ; infill
G1 X171.146 Y142.251 E6.45197 ; infill
G1 X78.854 Y64.808 E10.89883 ; infill
G1 X78.854 Y64.422 E10.91309 ; infill
G1 X171.146 Y141.864 E15.35995 ; infill
G1 X171.146 Y141.478 E15.37421 ; infill
G1 X78.854 Y64.035 E19.82108 ; infill
G1 X78.854 Y63.649 E19.83534 ; infill
G1 X171.146 Y141.092 E24.28220 ; infill
G1 X171.146 Y140.705 E24.29646 ; infill
G1 X78.854 Y63.263 E28.74332 ; infill
G1 X78.854 Y62.876 E28.75758 ; infill
G1 X171.146 Y140.319 E33.20444 ; infill
G1 X171.146 Y139.933 E33.21870 ; infill
G1 X78.854 Y62.490 E37.66557 ; infill
G1 X78.926 Y62.165 E37.67787 ; infill
G1 X171.252 Y139.635 E42.12635 ; infill
G1 X171.713 Y139.635 E42.14334 ; infill
G1 X79.387 Y62.165 E46.59182 ; infill
G1 X79.847 Y62.165 E46.60881 ; infill
G1 X172.173 Y139.635 E51.05728 ; infill
G1 X172.633 Y139.635 E51.07428 ; infill
G1 X80.307 Y62.165 E55.52275 ; infill
G1 X80.768 Y62.165 E55.53974 ; infill
G1 X173.094 Y139.635 E59.98822 ; infill
G1 X173.554 Y139.635 E60.00521 ; infill
G1 X81.228 Y62.165 E64.45368 ; infill
G1 X81.689 Y62.165 E64.47068 ; infill
G1 X174.014 Y139.635 E68.91915 ; infill
G1 X174.346 Y139.527 E68.93203 ; infill
G1 X82.149 Y62.165 E73.37431 ; infill
G1 X82.609 Y62.165 E73.39130 ; infill
G1 X174.346 Y139.141 E77.81140 ; infill
G1 X174.346 Y138.755 E77.82566 ; infill
G1 X83.070 Y62.165 E82.22357 ; infill
G1 X83.530 Y62.165 E82.24056 ; infill
G1 X174.346 Y138.369 E86.61629 ; infill
G1 X174.346 Y137.982 E86.63055 ; infill
G1 X83.990 Y62.165 E90.98410 ; infill
G1 X84.451 Y62.165 E91.00109 ; infill
G1 X174.346 Y137.596 E95.33246 ; infill
G1 X174.346 Y137.210 E95.34672 ; infill
G1 X84.911 Y62.165 E99.65591 ; infill
G1 X85.372 Y62.165 E99.67290 ; infill
G1 X174.346 Y136.823 E103.95990 ; infill
G1 X174.346 Y136.437 E103.97416 ; infill
G1 X85.832 Y62.165 E108.23898 ; infill
G1 X86.292 Y62.165 E108.25597 ; infill
G1 X174.346 Y136.051 E112.49861 ; infill
G1 X174.346 Y135.664 E112.51287 ; infill
G1 X86.753 Y62.165 E116.73333 ; infill
G1 X87.213 Y62.165 E116.75032 ; infill
G1 X174.346 Y135.278 E120.94859 ; infill
G1 X174.346 Y134.892 E120.96285 ; infill
G1 X87.673 Y62.165 E125.13894 ; infill
G1 X88.134 Y62.165 E125.15594 ; infill
G1 X174.346 Y134.505 E129.30984 ; infill
G1 X174.346 Y134.119 E129.32410 ; infill
G1 X88.594 Y62.165 E133.45583 ; infill
G1 X89.055 Y62.165 E133.47282 ; infill
G1 X174.346 Y133.733 E137.58237 ; infill
G1 X174.346 Y133.347 E137.59663 ; infill
G1 X89.515 Y62.165 E141.68399 ; infill
G1 X89.975 Y62.165 E141.70098 ; infill
G1 X174.346 Y132.960 E145.76616 ; infill
G1 X174.346 Y132.574 E145.78042 ; infill
G1 X90.436 Y62.165 E149.82342 ; infill
G1 X90.896 Y62.165 E149.84041 ; infill
G1 X174.346 Y132.188 E153.86123 ; infill
G1 X174.346 Y131.801 E153.87549 ; infill
G1 X91.357 Y62.165 E157.87412 ; infill
G1 X91.817 Y62.165 E157.89111 ; infill
G1 X174.346 Y131.415 E161.86756 ; infill
G1 X174.346 Y131.029 E161.88182 ; infill
G1 X92.277 Y62.165 E165.83609 ; infill
G1 X92.738 Y62.165 E165.85308 ; infill
G1 X174.346 Y130.642 E169.78517 ; infill
G1 X174.346 Y130.256 E169.79943 ; infill
G1 X93.198 Y62.165 E173.70933 ; infill
G1 X93.658 Y62.165 E173.72633 ; infill
G1 X174.346 Y129.870 E177.61405 ; infill
G1 X174.346 Y129.483 E177.62831 ; infill
G1 X94.119 Y62.165 E181.49385 ; infill
G1 X94.579 Y62.165 E181.51084 ; infill
G1 X174.346 Y129.097 E185.35420 ; infill
G1 X174.346 Y128.711 E185.36846 ; infill
G1 X95.040 Y62.165 E189.18963 ; infill
G1 X95.500 Y62.165 E189.20663 ; infill
G1 X174.346 Y128.325 E193.00562 ; infill
G1 X174.346 Y127.938 E193.01988 ; infill
G1 X95.960 Y62.165 E196.79669 ; infill
G1 X96.421 Y62.165 E196.81368 ; infill
G1 X174.346 Y127.552 E200.56831 ; infill
G1 X174.346 Y127.166 E200.58257 ; infill
G1 X96.881 Y62.165 E204.31502 ; infill
G1 X97.341 Y62.165 E204.33201 ; infill
G1 X174.346 Y126.779 E208.04227 ; infill
G1 X174.346 Y126.393 E208.05653 ; infill
G1 X97.802 Y62.165 E211.74461 ; infill
G1 X98.262 Y62.165 E211.76161 ; infill
G1 X174.346 Y126.007 E215.42751 ; infill
G1 X174.346 Y125.620 E215.44176 ; infill
G1 X98.723 Y62.165 E219.08548 ; infill
G1 X99.183 Y62.165 E219.10247 ; infill
G1 X174.346 Y125.234 E222.72401 ; infill
G1 X174.346 Y124.848 E222.73827 ; infill
G1 X99.643 Y62.165 E226.33762 ; infill
G1 X100.104 Y62.165 E226.35461 ; infill
G1 X174.346 Y124.461 E229.93179 ; infill
G1 X174.346 Y124.075 E229.94604 ; infill
G1 X100.564 Y62.165 E233.50103 ; infill
G1 X101.025 Y62.165 E233.51803 ; infill
G1 X174.346 Y123.689 E237.05083 ; infill
G1 X174.346 Y123.303 E237.06509 ; infill
G1 X101.485 Y62.165 E240.57571 ; infill
G1 X101.945 Y62.165 E240.59271 ; infill
G1 X174.346 Y122.916 E244.08115 ; infill
G1 X174.346 Y122.530 E244.09541 ; infill
G1 X102.406 Y62.165 E247.56167 ; infill
G1 X102.866 Y62.165 E247.57866 ; infill
G1 X174.346 Y122.144 E251.02274 ; infill
G1 X174.346 Y121.757 E251.03700 ; infill
G1 X103.326 Y62.165 E254.45889 ; infill
G1 X103.787 Y62.165 E254.47588 ; infill
G1 X174.346 Y121.371 E257.87560 ; infill
G1 X174.346 Y120.985 E257.88986 ; infill
G1 X104.247 Y62.165 E261.26739 ; infill
G1 X104.708 Y62.165 E261.28438 ; infill
G1 X174.346 Y120.598 E264.63973 ; infill
G1 X174.346 Y120.212 E264.65399 ; infill
G1 X105.168 Y62.165 E267.98715 ; infill
G1 X105.628 Y62.165 E268.00415 ; infill
G1 X174.346 Y119.826 E271.31513 ; infill
G1 X174.346 Y119.440 E271.32939 ; infill
G1 X106.089 Y62.165 E274.61819 ; infill
G1 X106.549 Y62.165 E274.63518 ; infill
G1 X174.346 Y119.053 E277.90180 ; infill
G1 X174.346 Y118.667 E277.91606 ; infill
G1 X107.010 Y62.165 E281.16050 ; infill
G1 X107.470 Y62.165 E281.17749 ; infill
G1 X174.346 Y118.281 E284.39975 ; infill
G1 X174.346 Y117.894 E284.41400 ; infill
G1 X107.930 Y62.165 E287.61408 ; infill
G1 X108.391 Y62.165 E287.63107 ; infill
G1 X174.346 Y117.508 E290.80896 ; infill
G1 X174.346 Y117.122 E290.82322 ; infill
G1 X108.851 Y62.165 E293.97893 ; infill
G1 X109.311 Y62.165 E293.99592 ; infill
G1 X174.346 Y116.735 E297.12945 ; infill
G1 X174.346 Y116.349 E297.14370 ; infill
G1 X109.772 Y62.165 E300.25505 ; infill
G1 X110.232 Y62.165 E300.27204 ; infill
G1 X174.346 Y115.963 E303.36120 ; infill
G1 X174.346 Y115.576 E303.37546 ; infill
G1 X110.693 Y62.165 E306.44244 ; infill
G1 X111.153 Y62.165 E306.45943 ; infill
G1 X174.346 Y115.190 E309.50423 ; infill
G1 X174.346 Y114.804 E309.51849 ; infill
G1 X111.613 Y62.165 E312.54110 ; infill
G1 X112.074 Y62.165 E312.55810 ; infill
G1 X174.346 Y114.418 E315.55853 ; infill
G1 X174.346 Y114.031 E315.57279 ; infill
G1 X112.534 Y62.165 E318.55104 ; infill
G1 X112.994 Y62.165 E318.56803 ; infill
G1 X174.346 Y113.645 E321.52410 ; infill
G1 X174.346 Y113.259 E321.53836 ; infill
G1 X113.455 Y62.165 E324.47224 ; infill
G1 X113.915 Y62.165 E324.48924 ; infill
G1 X174.346 Y112.872 E327.40094 ; infill
G1 X174.346 Y112.486 E327.41520 ; infill
G1 X114.376 Y62.165 E330.30472 ; infill
G1 X114.836 Y62.165 E330.32171 ; infill
G1 X174.346 Y112.100 E333.18905 ; infill
G1 X174.346 Y111.713 E333.20331 ; infill
G1 X115.296 Y62.165 E336.04847 ; infill
G1 X115.757 Y62.165 E336.06546 ; infill
G1 X174.346 Y111.327 E338.88843 ; infill
G1 X174.346 Y110.941 E338.90269 ; infill
G1 X116.217 Y62.165 E341.70348 ; infill
G1 X116.678 Y62.165 E341.72048 ; infill
G1 X174.346 Y110.554 E344.49909 ; infill
G1 X174.346 Y110.168 E344.51335 ; infill
G1 X117.138 Y62.165 E347.26977 ; infill
G1 X117.598 Y62.165 E347.28677 ; infill
G1 X174.346 Y109.782 E350.02101 ; infill
G1 X174.346 Y109.396 E350.03527 ; infill
G1 X118.059 Y62.165 E352.74733 ; infill
G1 X118.519 Y62.165 E352.76433 ; infill
G1 X174.346 Y109.009 E355.45421 ; infill
G1 X174.346 Y92.398 F10800.000 ; move to first infill point
G1 X174.068 Y92.165 E355.46761 F3000.000 ; infill
G1 X173.608 Y92.165 E355.48460 ; infill
G1 X174.346 Y92.784 E355.52019 ; infill
G1 X174.346 Y93.171 E355.53445 ; infill
G1 X173.147 Y92.165 E355.59222 ; infill
G1 X172.687 Y92.165 E355.60921 ; infill
G1 X174.346 Y93.557 E355.68916 ; infill
G1 X174.346 Y93.943 E355.70342 ; infill
G1 X172.227 Y92.165 E355.80555 ; infill
G1 X171.766 Y92.165 E355.82254 ; infill
G1 X174.346 Y94.330 E355.94686 ; infill
G1 X174.346 Y94.716 E355.96111 ; infill
G1 X171.306 Y92.165 E356.10761 ; infill
G1 X170.845 Y92.165 E356.12460 ; infill
G1 X174.346 Y95.102 E356.29328 ; infill
G1 X174.346 Y95.489 E356.30754 ; infill
G1 X170.385 Y92.165 E356.49840 ; infill
G1 X169.925 Y92.165 E356.51540 ; infill
G1 X174.346 Y95.875 E356.72844 ; infill
G1 X174.346 Y96.261 E356.74270 ; infill
G1 X169.464 Y92.165 E356.97792 ; infill
G1 X169.004 Y92.165 E356.99492 ; infill
