; generated by Slic3r 1.1.7 on 2015-02-11 at 21:03:38

; perimeters extrusion width = 0.35mm
; infill extrusion width = 0.35mm
; solid infill extrusion width = 0.35mm
; top infill extrusion width = 0.35mm
; support material extrusion width = 0.35mm

G21 ; set units to millimeters
M190 S55 ; wait for bed temperature to be reached
M104 S195 ; set temperature
G28 ; home all axes
G1 Z5 F5000 ; lift nozzle
M109 S195 ; wait for temperature to be reached
G90 ; use absolute coordinates
G92 E0 ; reset extrusion distance
M82 ; use absolute distances for extrusion
G1 F1800.000 E-1.00000 ; retract
G92 E0 ; reset extrusion distance
G1 Z0.150 F7800.000 ; move to next layer (0)
G1 X46.830 Y31.617 F7800.000 ; move to first skirt point
G1 E1.00000 F1800.000 ; compensate retraction
G1 X48.511 Y30.025 E1.04548 F1800.000 ; skirt
G1 X51.479 Y28.942 E1.10753 ; skirt
G1 X116.334 Y21.584 E2.38973 ; skirt
G1 X136.720 Y21.595 E2.79020 ; skirt
G1 X205.876 Y25.555 E4.15095 ; skirt
G1 X208.130 Y26.082 E4.19643 ; skirt
G1 X210.074 Y27.339 E4.24191 ; skirt
G1 X211.479 Y29.180 E4.28739 ; skirt
G1 X212.238 Y32.125 E4.34714 ; skirt
G1 X215.172 Y149.666 E6.65686 ; skirt
G1 X215.172 Y169.666 E7.04975 ; skirt
G1 X214.775 Y171.947 E7.09522 ; skirt
G1 X213.631 Y173.959 E7.14070 ; skirt
G1 X211.874 Y175.467 E7.18618 ; skirt
G1 X209.710 Y176.292 E7.23166 ; skirt
G1 X208.422 Y176.416 E7.25709 ; skirt
G1 X188.393 Y176.416 E7.65055 ; skirt
G1 X36.172 Y175.755 E10.64084 ; skirt
G1 X33.893 Y175.348 E10.68632 ; skirt
G1 X31.885 Y174.195 E10.73180 ; skirt
G1 X30.386 Y172.431 E10.77728 ; skirt
G1 X29.570 Y170.264 E10.82276 ; skirt
G1 X29.452 Y169.077 E10.84621 ; skirt
G1 X28.828 Y110.405 E11.99883 ; skirt
G1 X28.828 Y90.405 E12.39172 ; skirt
G1 X29.120 Y88.439 E12.43075 ; skirt
G1 X45.787 Y33.683 E13.55512 ; skirt
G1 X46.807 Y31.664 E13.59957 ; skirt
G1 X47.147 Y31.778 F7800.000 ; move to first skirt point
G1 X48.805 Y30.251 E13.64385 F1800.000 ; skirt
G1 X51.518 Y29.290 E13.70040 ; skirt
G1 X116.334 Y21.934 E14.98182 ; skirt
G1 X136.700 Y21.945 E15.38190 ; skirt
G1 X205.856 Y25.904 E16.74264 ; skirt
G1 X208.048 Y26.427 E16.78692 ; skirt
G1 X209.923 Y27.678 E16.83120 ; skirt
G1 X211.249 Y29.501 E16.87547 ; skirt
G1 X211.888 Y32.134 E16.92870 ; skirt
G1 X214.822 Y149.666 E19.23824 ; skirt
G1 X214.822 Y169.666 E19.63113 ; skirt
G1 X214.425 Y171.885 E19.67540 ; skirt
G1 X213.284 Y173.828 E19.71968 ; skirt
G1 X211.540 Y175.255 E19.76395 ; skirt
G1 X208.422 Y176.066 E19.82723 ; skirt
G1 X188.394 Y176.066 E20.22066 ; skirt
G1 X36.174 Y175.405 E23.21096 ; skirt
G1 X33.957 Y174.998 E23.25523 ; skirt
G1 X32.018 Y173.848 E23.29951 ; skirt
G1 X30.598 Y172.098 E23.34378 ; skirt
G1 X29.802 Y169.073 E23.40523 ; skirt
G1 X29.178 Y110.405 E24.55778 ; skirt
G1 X29.178 Y90.405 E24.95067 ; skirt
G1 X29.455 Y88.541 E24.98768 ; skirt
G1 X46.121 Y33.785 E26.11205 ; skirt
G1 X47.123 Y31.825 E26.15529 ; skirt
G1 X47.463 Y31.941 F7800.000 ; move to first skirt point
G1 X49.097 Y30.482 E26.19833 F1800.000 ; skirt
G1 X51.558 Y29.638 E26.24944 ; skirt
G1 X116.334 Y22.284 E27.53009 ; skirt
G1 X136.680 Y22.294 E27.92977 ; skirt
G1 X205.836 Y26.254 E29.29052 ; skirt
G1 X207.964 Y26.773 E29.33356 ; skirt
G1 X209.768 Y28.016 E29.37659 ; skirt
G1 X211.011 Y29.820 E29.41963 ; skirt
G1 X211.538 Y32.143 E29.46641 ; skirt
G1 X214.472 Y149.666 E31.77579 ; skirt
G1 X214.472 Y169.666 E32.16867 ; skirt
G1 X214.076 Y171.821 E32.21171 ; skirt
G1 X212.937 Y173.693 E32.25475 ; skirt
G1 X211.207 Y175.037 E32.29779 ; skirt
G1 X208.422 Y175.716 E32.35410 ; skirt
G1 X188.396 Y175.716 E32.74750 ; skirt
G1 X36.175 Y175.055 E35.73780 ; skirt
G1 X34.022 Y174.649 E35.78084 ; skirt
G1 X32.155 Y173.502 E35.82387 ; skirt
G1 X30.818 Y171.766 E35.86691 ; skirt
G1 X30.152 Y169.069 E35.92149 ; skirt
G1 X29.528 Y110.405 E37.07397 ; skirt
G1 X29.528 Y90.405 E37.46686 ; skirt
G1 X29.790 Y88.643 E37.50185 ; skirt
G1 X46.456 Y33.887 E38.62621 ; skirt
G1 X47.439 Y31.988 E38.66822 ; skirt
G1 X47.779 Y32.106 F7800.000 ; move to first skirt point
G1 X49.387 Y30.716 E38.70998 F1800.000 ; skirt
G1 X51.598 Y29.985 E38.75572 ; skirt
G1 X116.334 Y22.634 E40.03559 ; skirt
G1 X136.660 Y22.643 E40.43487 ; skirt
G1 X205.816 Y26.603 E41.79562 ; skirt
G1 X207.879 Y27.119 E41.83739 ; skirt
G1 X209.609 Y28.354 E41.87915 ; skirt
G1 X210.766 Y30.137 E41.92091 ; skirt
G1 X211.188 Y32.152 E41.96135 ; skirt
G1 X214.122 Y149.666 E44.27055 ; skirt
G1 X214.122 Y169.666 E44.66343 ; skirt
G1 X213.726 Y171.755 E44.70520 ; skirt
G1 X212.591 Y173.553 E44.74696 ; skirt
G1 X210.877 Y174.810 E44.78872 ; skirt
G1 X208.422 Y175.366 E44.83817 ; skirt
G1 X188.397 Y175.366 E45.23154 ; skirt
G1 X36.177 Y174.705 E48.22184 ; skirt
G1 X34.090 Y174.299 E48.26360 ; skirt
G1 X32.296 Y173.157 E48.30536 ; skirt
G1 X31.046 Y171.437 E48.34713 ; skirt
G1 X30.502 Y169.065 E48.39493 ; skirt
G1 X29.878 Y110.405 E49.54734 ; skirt
G1 X29.878 Y90.405 E49.94023 ; skirt
G1 X30.125 Y88.745 E49.97319 ; skirt
G1 X46.791 Y33.989 E51.09756 ; skirt
G1 X47.754 Y32.153 E51.13829 ; skirt
G1 X48.093 Y32.273 F7800.000 ; move to first skirt point
G1 X49.676 Y30.956 E51.17874 F1800.000 ; skirt
G1 X51.637 Y30.333 E51.21917 ; skirt
G1 X116.334 Y22.984 E52.49826 ; skirt
G1 X136.640 Y22.993 E52.89715 ; skirt
G1 X205.796 Y26.953 E54.25790 ; skirt
G1 X207.791 Y27.464 E54.29835 ; skirt
G1 X209.445 Y28.690 E54.33880 ; skirt
G1 X210.513 Y30.451 E54.37925 ; skirt
G1 X210.838 Y32.160 E54.41343 ; skirt
G1 X213.772 Y149.666 E56.72246 ; skirt
G1 X213.772 Y169.666 E57.11535 ; skirt
G1 X213.376 Y171.687 E57.15580 ; skirt
G1 X212.246 Y173.408 E57.19625 ; skirt
G1 X210.549 Y174.575 E57.23670 ; skirt
G1 X208.422 Y175.016 E57.27937 ; skirt
G1 X188.399 Y175.016 E57.67272 ; skirt
G1 X36.178 Y174.355 E60.66301 ; skirt
G1 X34.159 Y173.950 E60.70346 ; skirt
G1 X32.443 Y172.812 E60.74391 ; skirt
G1 X31.283 Y171.110 E60.78436 ; skirt
G1 X30.852 Y169.062 E60.82549 ; skirt
G1 X30.228 Y110.405 E61.97783 ; skirt
G1 X30.228 Y90.405 E62.37071 ; skirt
G1 X30.460 Y88.847 E62.40165 ; skirt
G1 X47.126 Y34.091 E63.52602 ; skirt
G1 X48.069 Y32.320 E63.56544 ; skirt
G1 F1800.000 E62.56544 ; retract
G92 E0 ; reset extrusion distance
G1 X188.831 Y169.217 F7800.000 ; move to first fill point
G1 E1.00000 F1800.000 ; compensate retraction
G1 X188.871 Y169.257 E1.00111 F1200.000 ; fill
G1 X189.368 Y169.257 E1.01088 ; fill
G1 X188.831 Y168.720 E1.02580 ; fill
G1 X188.831 Y168.223 E1.03557 ; fill
G1 X189.865 Y169.257 E1.06431 ; fill
G1 X190.363 Y169.257 E1.07407 ; fill
G1 X188.831 Y167.726 E1.11663 ; fill
G1 X188.831 Y167.228 E1.12639 ; fill
G1 X190.860 Y169.257 E1.18276 ; fill
G1 X191.357 Y169.257 E1.19252 ; fill
G1 X188.831 Y166.731 E1.26270 ; fill
G1 X188.831 Y166.234 E1.27247 ; fill
G1 X191.854 Y169.257 E1.35646 ; fill
G1 X192.351 Y169.257 E1.36622 ; fill
G1 X188.831 Y165.737 E1.46403 ; fill
G1 X188.831 Y165.239 E1.47379 ; fill
G1 X192.849 Y169.257 E1.58541 ; fill
G1 X193.346 Y169.257 E1.59518 ; fill
G1 X188.831 Y164.742 E1.72061 ; fill
G1 X188.831 Y164.245 E1.73037 ; fill
G1 X193.843 Y169.257 E1.86961 ; fill
G1 X194.340 Y169.257 E1.87938 ; fill
G1 X188.831 Y163.748 E2.03244 ; fill
G1 X188.831 Y163.251 E2.04220 ; fill
G1 X194.837 Y169.257 E2.20907 ; fill
G1 X195.335 Y169.257 E2.21884 ; fill
G1 X188.831 Y162.753 E2.39952 ; fill
G1 X188.831 Y162.256 E2.40929 ; fill
G1 X195.832 Y169.257 E2.60378 ; fill
G1 X196.329 Y169.257 E2.61355 ; fill
G1 X188.831 Y161.759 E2.82186 ; fill
G1 X188.831 Y161.262 E2.83162 ; fill
G1 X196.826 Y169.257 E3.05374 ; fill
G1 X197.323 Y169.257 E3.06351 ; fill
G1 X188.831 Y160.765 E3.29944 ; fill
G1 X188.831 Y160.267 E3.30921 ; fill
G1 X197.821 Y169.257 E3.55896 ; fill
G1 X198.318 Y169.257 E3.56872 ; fill
G1 X188.831 Y159.770 E3.83228 ; fill
G1 X188.831 Y159.273 E3.84205 ; fill
G1 X198.815 Y169.257 E4.11942 ; fill
G1 X199.312 Y169.257 E4.12919 ; fill
G1 X188.831 Y158.776 E4.42038 ; fill
G1 X188.831 Y158.279 E4.43014 ; fill
G1 X199.810 Y169.257 E4.73514 ; fill
G1 X200.307 Y169.257 E4.74491 ; fill
G1 X188.831 Y157.781 E5.06372 ; fill
G1 X188.831 Y157.284 E5.07349 ; fill
G1 X200.804 Y169.257 E5.40611 ; fill
G1 X201.301 Y169.257 E5.41588 ; fill
G1 X188.831 Y156.787 E5.76232 ; fill
G1 X188.831 Y156.290 E5.77209 ; fill
G1 X201.798 Y169.257 E6.13234 ; fill
G1 X202.296 Y169.257 E6.14210 ; fill
G1 X188.831 Y155.792 E6.51617 ; fill
G1 X188.831 Y155.295 E6.52593 ; fill
G1 X202.793 Y169.257 E6.91381 ; fill
G1 X203.290 Y169.257 E6.92358 ; fill
G1 X188.831 Y154.798 E7.32527 ; fill
G1 X188.831 Y154.301 E7.33504 ; fill
G1 X203.787 Y169.257 E7.75054 ; fill
G1 X204.284 Y169.257 E7.76031 ; fill
G1 X188.831 Y153.804 E8.18962 ; fill
G1 X188.831 Y153.306 E8.19939 ; fill
G1 X204.782 Y169.257 E8.64252 ; fill
G1 X205.279 Y169.257 E8.65229 ; fill
G1 X188.831 Y152.809 E9.10923 ; fill
G1 X188.831 Y152.312 E9.11899 ; fill
G1 X205.776 Y169.257 E9.58975 ; fill
G1 X206.273 Y169.257 E9.59952 ; fill
G1 X188.831 Y151.815 E10.08409 ; fill
G1 X188.831 Y151.318 E10.09385 ; fill
G1 X206.770 Y169.257 E10.59223 ; fill
G1 X207.268 Y169.257 E10.60200 ; fill
G1 X188.831 Y150.820 E11.11420 ; fill
G1 X188.831 Y150.323 E11.12396 ; fill
G1 X207.765 Y169.257 E11.64997 ; fill
G1 X208.013 Y169.009 E11.65688 ; fill
G1 X189.080 Y150.075 E12.18288 ; fill
G1 X189.577 Y150.075 E12.19265 ; fill
G1 X208.013 Y168.511 E12.70485 ; fill
G1 X208.013 Y168.014 E12.71461 ; fill
G1 X190.074 Y150.075 E13.21299 ; fill
G1 X190.571 Y150.075 E13.22276 ; fill
G1 X208.013 Y167.517 E13.70733 ; fill
G1 X208.013 Y167.020 E13.71710 ; fill
G1 X191.068 Y150.075 E14.18785 ; fill
G1 X191.566 Y150.075 E14.19762 ; fill
G1 X208.013 Y166.522 E14.65456 ; fill
G1 X208.013 Y166.025 E14.66433 ; fill
G1 X192.063 Y150.075 E15.10746 ; fill
G1 X192.560 Y150.075 E15.11723 ; fill
G1 X208.013 Y165.528 E15.54654 ; fill
G1 X208.013 Y165.031 E15.55631 ; fill
G1 X193.057 Y150.075 E15.97181 ; fill
G1 X193.554 Y150.075 E15.98158 ; fill
G1 X208.013 Y164.534 E16.38327 ; fill
G1 X208.013 Y164.036 E16.39304 ; fill
G1 X194.052 Y150.075 E16.78091 ; fill
G1 X194.549 Y150.075 E16.79068 ; fill
G1 X208.013 Y163.539 E17.16474 ; fill
G1 X208.013 Y163.042 E17.17451 ; fill
G1 X195.046 Y150.075 E17.53476 ; fill
G1 X195.543 Y150.075 E17.54453 ; fill
G1 X208.013 Y162.545 E17.89097 ; fill
G1 X208.013 Y162.048 E17.90073 ; fill
G1 X196.040 Y150.075 E18.23336 ; fill
G1 X196.538 Y150.075 E18.24313 ; fill
G1 X208.013 Y161.550 E18.56194 ; fill
G1 X208.013 Y161.053 E18.57170 ; fill
G1 X197.035 Y150.075 E18.87670 ; fill
G1 X197.532 Y150.075 E18.88647 ; fill
G1 X208.013 Y160.556 E19.17766 ; fill
G1 X208.013 Y160.059 E19.18742 ; fill
G1 X198.029 Y150.075 E19.46480 ; fill
G1 X198.527 Y150.075 E19.47456 ; fill
G1 X208.013 Y159.562 E19.73812 ; fill
G1 X208.013 Y159.064 E19.74789 ; fill
G1 X199.024 Y150.075 E19.99764 ; fill
G1 X199.521 Y150.075 E20.00740 ; fill
G1 X208.013 Y158.567 E20.24334 ; fill
G1 X208.013 Y158.070 E20.25310 ; fill
G1 X200.018 Y150.075 E20.47522 ; fill
G1 X200.515 Y150.075 E20.48499 ; fill
G1 X208.013 Y157.573 E20.69330 ; fill
G1 X208.013 Y157.076 E20.70307 ; fill
G1 X201.013 Y150.075 E20.89756 ; fill
G1 X201.510 Y150.075 E20.90733 ; fill
G1 X208.013 Y156.578 E21.08801 ; fill
G1 X208.013 Y156.081 E21.09778 ; fill
G1 X202.007 Y150.075 E21.26464 ; fill
G1 X202.504 Y150.075 E21.27441 ; fill
G1 X208.013 Y155.584 E21.42747 ; fill
G1 X208.013 Y155.087 E21.43723 ; fill
G1 X203.001 Y150.075 E21.57647 ; fill
G1 X203.499 Y150.075 E21.58624 ; fill
G1 X208.013 Y154.589 E21.71167 ; fill
G1 X208.013 Y154.092 E21.72144 ; fill
G1 X203.996 Y150.075 E21.83305 ; fill
G1 X204.493 Y150.075 E21.84282 ; fill
G1 X208.013 Y153.595 E21.94062 ; fill
G1 X208.013 Y153.098 E21.95039 ; fill
G1 X204.990 Y150.075 E22.03438 ; fill
G1 X205.487 Y150.075 E22.04415 ; fill
G1 X208.013 Y152.601 E22.11432 ; fill
G1 X208.013 Y152.103 E22.12409 ; fill
G1 X205.985 Y150.075 E22.18046 ; fill
G1 X206.482 Y150.075 E22.19022 ; fill
G1 X208.013 Y151.606 E22.23277 ; fill
G1 X208.013 Y151.109 E22.24254 ; fill
G1 X206.979 Y150.075 E22.27128 ; fill
G1 X207.476 Y150.075 E22.28104 ; fill
G1 X208.013 Y150.612 E22.29597 ; fill
G1 X208.013 Y150.115 E22.30574 ; fill
G1 X207.973 Y150.075 E22.30685 ; fill
G1 X188.597 Y149.841 F7800.000 ; move to first perimeter point
G1 X208.247 Y149.841 E22.69286 F900.000 ; perimeter
G1 X208.247 Y169.491 E23.07887 ; perimeter
G1 X188.597 Y169.491 E23.46488 ; perimeter
G1 X188.597 Y149.893 E23.84986 ; perimeter
G1 F1800.000 E22.84986 ; retract
G92 E0 ; reset extrusion distance
G1 X182.825 Y110.982 F7800.000 ; move to first fill point
G1 E1.00000 F1800.000 ; compensate retraction
G1 X182.865 Y111.022 E1.00111 F1200.000 ; fill
G1 X183.363 Y111.022 E1.01088 ; fill
G1 X182.825 Y110.484 E1.02580 ; fill
G1 X182.825 Y109.987 E1.03557 ; fill
G1 X183.860 Y111.022 E1.06431 ; fill
G1 X184.357 Y111.022 E1.07407 ; fill
G1 X182.825 Y109.490 E1.11663 ; fill
G1 X182.825 Y108.993 E1.12639 ; fill
G1 X184.854 Y111.022 E1.18276 ; fill
G1 X185.351 Y111.022 E1.19252 ; fill
G1 X182.825 Y108.496 E1.26270 ; fill
G1 X182.825 Y107.998 E1.27247 ; fill
G1 X185.849 Y111.022 E1.35646 ; fill
G1 X186.346 Y111.022 E1.36622 ; fill
G1 X182.825 Y107.501 E1.46403 ; fill
G1 X182.825 Y107.004 E1.47379 ; fill
G1 X186.843 Y111.022 E1.58541 ; fill
G1 X187.340 Y111.022 E1.59518 ; fill
G1 X182.825 Y106.507 E1.72061 ; fill
G1 X182.825 Y106.009 E1.73037 ; fill
G1 X187.837 Y111.022 E1.86961 ; fill
G1 X188.335 Y111.022 E1.87938 ; fill
G1 X182.825 Y105.512 E2.03244 ; fill
G1 X182.825 Y105.015 E2.04220 ; fill
G1 X188.832 Y111.022 E2.20907 ; fill
G1 X189.329 Y111.022 E2.21884 ; fill
G1 X182.825 Y104.518 E2.39952 ; fill
G1 X182.825 Y104.021 E2.40929 ; fill
G1 X189.826 Y111.022 E2.60378 ; fill
G1 X190.323 Y111.022 E2.61355 ; fill
G1 X182.825 Y103.523 E2.82186 ; fill
G1 X182.825 Y103.026 E2.83162 ; fill
G1 X190.821 Y111.022 E3.05374 ; fill
G1 X191.318 Y111.022 E3.06351 ; fill
G1 X182.825 Y102.529 E3.29944 ; fill
G1 X182.825 Y102.032 E3.30921 ; fill
G1 X191.815 Y111.022 E3.55896 ; fill
G1 X192.312 Y111.022 E3.56872 ; fill
G1 X182.825 Y101.535 E3.83228 ; fill
G1 X182.825 Y101.037 E3.84205 ; fill
G1 X192.810 Y111.022 E4.11942 ; fill
G1 X193.307 Y111.022 E4.12919 ; fill
G1 X182.825 Y100.540 E4.42038 ; fill
G1 X182.825 Y100.043 E4.43014 ; fill
G1 X193.804 Y111.022 E4.73514 ; fill
G1 X194.301 Y111.022 E4.74491 ; fill
G1 X182.825 Y99.546 E5.06372 ; fill
G1 X182.825 Y99.049 E5.07349 ; fill
G1 X194.798 Y111.022 E5.40611 ; fill
G1 X195.296 Y111.022 E5.41588 ; fill
G1 X182.825 Y98.551 E5.76232 ; fill
G1 X182.825 Y98.054 E5.77209 ; fill
G1 X195.793 Y111.022 E6.13234 ; fill
G1 X196.290 Y111.022 E6.14210 ; fill
G1 X182.825 Y97.557 E6.51617 ; fill
G1 X182.825 Y97.060 E6.52593 ; fill
G1 X196.787 Y111.022 E6.91381 ; fill
G1 X197.284 Y111.022 E6.92358 ; fill
G1 X182.825 Y96.563 E7.32527 ; fill
G1 X182.825 Y96.065 E7.33504 ; fill
G1 X197.782 Y111.022 E7.75054 ; fill
G1 X198.279 Y111.022 E7.76031 ; fill
G1 X182.825 Y95.568 E8.18962 ; fill
G1 X182.825 Y95.071 E8.19939 ; fill
G1 X198.776 Y111.022 E8.64252 ; fill
G1 X199.273 Y111.022 E8.65229 ; fill
G1 X182.825 Y94.574 E9.10923 ; fill
G1 X182.825 Y94.076 E9.11899 ; fill
G1 X199.770 Y111.022 E9.58975 ; fill
G1 X200.268 Y111.022 E9.59952 ; fill
G1 X182.825 Y93.579 E10.08409 ; fill
G1 X182.825 Y93.082 E10.09385 ; fill
G1 X200.765 Y111.022 E10.59223 ; fill
G1 X201.262 Y111.022 E10.60200 ; fill
G1 X182.825 Y92.585 E11.11420 ; fill
G1 X182.825 Y92.088 E11.12396 ; fill
G1 X201.759 Y111.022 E11.64997 ; fill
G1 X202.008 Y110.773 E11.65688 ; fill
G1 X183.074 Y91.839 E12.18288 ; fill
G1 X183.571 Y91.839 E12.19265 ; fill
G1 X202.008 Y110.276 E12.70485 ; fill
G1 X202.008 Y109.779 E12.71461 ; fill
G1 X184.068 Y91.839 E13.21299 ; fill
G1 X184.566 Y91.839 E13.22276 ; fill
G1 X202.008 Y109.281 E13.70733 ; fill
G1 X202.008 Y108.784 E13.71710 ; fill
G1 X185.063 Y91.839 E14.18785 ; fill
G1 X185.560 Y91.839 E14.19762 ; fill
G1 X202.008 Y108.287 E14.65456 ; fill
G1 X202.008 Y107.790 E14.66433 ; fill
G1 X186.057 Y91.839 E15.10746 ; fill
G1 X186.554 Y91.839 E15.11723 ; fill
G1 X202.008 Y107.293 E15.54654 ; fill
G1 X202.008 Y106.795 E15.55631 ; fill
G1 X187.052 Y91.839 E15.97181 ; fill
