; generated by Slic3r 1.1.7 on 2015-02-04 at 21:26:41

; perimeters extrusion width = 0.35mm
; infill extrusion width = 0.35mm
; solid infill extrusion width = 0.35mm
; top infill extrusion width = 0.35mm
; support material extrusion width = 0.35mm

G21 ; set units to millimeters
M107 ; disable fan
M190 S55 ; wait for bed temperature to be reached
M104 S195 ; set temperature
G28 ; home all axes
G1 Z5 F5000 ; lift nozzle
M109 S195 ; wait for temperature to be reached
G90 ; use absolute coordinates
G92 E0 ; reset extrusion distance
M82 ; use absolute distances for extrusion
G1 F1800.000 E-1.00000 ; retract
G92 E0 ; reset extrusion distance
G1 Z0.150 F7800.000 ; move to next layer (0)
M104 S190.025
G1 X102.039 Y77.196 F7800.000 ; move to first skirt point
G1 E1.00000 F1800.000 ; compensate retraction
G1 X104.431 Y75.166 E1.06162 F1800.000 ; skirt
G1 X107.257 Y73.804 E1.12324 ; skirt
G1 X111.152 Y73.171 E1.20075 ; skirt
G1 X141.081 Y73.150 E1.78870 ; skirt
G1 X144.193 Y73.546 E1.85033 ; skirt
G1 X147.105 Y74.714 E1.91195 ; skirt
G1 X149.628 Y76.577 E1.97357 ; skirt
G1 X151.601 Y79.016 E2.03519 ; skirt
G1 X152.738 Y81.396 E2.08700 ; skirt
G1 X157.568 Y95.101 E2.37247 ; skirt
G1 X158.164 Y97.594 E2.42282 ; skirt
G1 X158.334 Y98.888 E2.44846 ; skirt
G1 X158.334 Y102.112 E2.51179 ; skirt
G1 X158.163 Y103.413 E2.53757 ; skirt
G1 X157.568 Y105.899 E2.58777 ; skirt
G1 X152.738 Y119.604 E2.87324 ; skirt
G1 X151.328 Y122.407 E2.93487 ; skirt
G1 X149.258 Y124.763 E2.99649 ; skirt
G1 X146.613 Y126.546 E3.05914 ; skirt
G1 X136.613 Y131.546 E3.27877 ; skirt
G1 X133.652 Y132.581 E3.34040 ; skirt
G1 X131.090 Y132.850 E3.39100 ; skirt
G1 X111.090 Y132.850 E3.78388 ; skirt
G1 X107.979 Y132.452 E3.84551 ; skirt
G1 X105.068 Y131.282 E3.90713 ; skirt
G1 X102.546 Y129.417 E3.96875 ; skirt
G1 X99.988 Y125.910 E4.05402 ; skirt
G1 X99.389 Y124.596 E4.08238 ; skirt
G1 X98.937 Y123.431 E4.10694 ; skirt
G1 X98.634 Y122.528 E4.12566 ; skirt
G1 X98.360 Y121.585 E4.14494 ; skirt
G1 X98.091 Y120.471 E4.16746 ; skirt
G1 X97.943 Y119.727 E4.18235 ; skirt
G1 X97.762 Y118.574 E4.20528 ; skirt
G1 X97.656 Y117.618 E4.22417 ; skirt
G1 X97.589 Y116.658 E4.24308 ; skirt
G1 X97.561 Y115.696 E4.26199 ; skirt
G1 X97.571 Y114.769 E4.28020 ; skirt
G1 X98.548 Y86.578 E4.83433 ; skirt
G1 X98.649 Y85.323 E4.85905 ; skirt
G1 X98.808 Y84.210 E4.88114 ; skirt
G1 X99.138 Y82.701 E4.91149 ; skirt
G1 X100.236 Y79.762 E4.97311 ; skirt
G1 X102.009 Y77.239 E5.03370 ; skirt
G1 X102.358 Y77.366 F7800.000 ; move to first skirt point
G1 X104.734 Y75.388 E5.09444 F1800.000 ; skirt
G1 X107.536 Y74.082 E5.15518 ; skirt
G1 X111.152 Y73.521 E5.22705 ; skirt
G1 X141.082 Y73.500 E5.81500 ; skirt
G1 X144.148 Y73.896 E5.87574 ; skirt
G1 X147.011 Y75.063 E5.93648 ; skirt
G1 X149.482 Y76.922 E5.99722 ; skirt
G1 X151.395 Y79.351 E6.05796 ; skirt
G1 X152.408 Y81.512 E6.10483 ; skirt
G1 X157.238 Y95.218 E6.39030 ; skirt
G1 X157.817 Y97.640 E6.43922 ; skirt
G1 X157.987 Y98.934 E6.46486 ; skirt
G1 X157.987 Y102.066 E6.52640 ; skirt
G1 X157.816 Y103.368 E6.55218 ; skirt
G1 X157.238 Y105.782 E6.60096 ; skirt
G1 X152.408 Y119.488 E6.88643 ; skirt
G1 X151.013 Y122.248 E6.94717 ; skirt
G1 X148.960 Y124.559 E7.00791 ; skirt
G1 X146.457 Y126.233 E7.06706 ; skirt
G1 X136.457 Y131.233 E7.28669 ; skirt
G1 X133.536 Y132.248 E7.34743 ; skirt
G1 X131.090 Y132.500 E7.39573 ; skirt
G1 X111.090 Y132.500 E7.78862 ; skirt
G1 X108.024 Y132.102 E7.84936 ; skirt
G1 X105.161 Y130.933 E7.91009 ; skirt
G1 X102.692 Y129.072 E7.97083 ; skirt
G1 X100.303 Y125.757 E8.05111 ; skirt
G1 X99.713 Y124.462 E8.07906 ; skirt
G1 X99.266 Y123.312 E8.10330 ; skirt
G1 X98.967 Y122.422 E8.12174 ; skirt
G1 X98.698 Y121.494 E8.14073 ; skirt
G1 X98.433 Y120.398 E8.16286 ; skirt
G1 X98.287 Y119.663 E8.17759 ; skirt
G1 X98.109 Y118.530 E8.20012 ; skirt
G1 X98.004 Y117.588 E8.21874 ; skirt
G1 X97.938 Y116.642 E8.23737 ; skirt
G1 X97.911 Y115.695 E8.25599 ; skirt
G1 X97.921 Y114.781 E8.27394 ; skirt
G1 X98.898 Y86.595 E8.82796 ; skirt
G1 X98.997 Y85.364 E8.85223 ; skirt
G1 X99.153 Y84.269 E8.87395 ; skirt
G1 X99.478 Y82.781 E8.90388 ; skirt
G1 X100.566 Y79.886 E8.96462 ; skirt
G1 X102.327 Y77.409 E9.02433 ; skirt
G1 X102.676 Y77.538 F7800.000 ; move to first skirt point
G1 X105.035 Y75.612 E9.08417 F1800.000 ; skirt
G1 X107.814 Y74.362 E9.14401 ; skirt
G1 X111.152 Y73.871 E9.21030 ; skirt
G1 X141.082 Y73.850 E9.79825 ; skirt
G1 X144.102 Y74.246 E9.85809 ; skirt
G1 X146.917 Y75.412 E9.91793 ; skirt
G1 X149.333 Y77.267 E9.97778 ; skirt
G1 X151.185 Y79.686 E10.03762 ; skirt
G1 X152.078 Y81.628 E10.07961 ; skirt
G1 X156.907 Y95.334 E10.36508 ; skirt
G1 X157.470 Y97.685 E10.41257 ; skirt
G1 X157.640 Y98.979 E10.43822 ; skirt
G1 X157.640 Y102.021 E10.49796 ; skirt
G1 X157.469 Y103.322 E10.52374 ; skirt
G1 X156.907 Y105.666 E10.57109 ; skirt
G1 X152.078 Y119.372 E10.85656 ; skirt
G1 X150.698 Y122.088 E10.91640 ; skirt
G1 X148.662 Y124.354 E10.97625 ; skirt
G1 X146.300 Y125.920 E11.03192 ; skirt
G1 X136.300 Y130.920 E11.25155 ; skirt
G1 X133.421 Y131.915 E11.31139 ; skirt
G1 X131.090 Y132.150 E11.35741 ; skirt
G1 X111.090 Y132.150 E11.75030 ; skirt
G1 X108.070 Y131.752 E11.81014 ; skirt
G1 X105.256 Y130.584 E11.86998 ; skirt
G1 X102.841 Y128.727 E11.92982 ; skirt
G1 X100.617 Y125.603 E12.00515 ; skirt
G1 X100.036 Y124.329 E12.03267 ; skirt
G1 X99.534 Y123.021 E12.06018 ; skirt
G1 X99.245 Y122.133 E12.07852 ; skirt
G1 X98.992 Y121.234 E12.09687 ; skirt
G1 X98.776 Y120.326 E12.11521 ; skirt
G1 X98.597 Y119.409 E12.13356 ; skirt
G1 X98.456 Y118.486 E12.15191 ; skirt
G1 X98.353 Y117.558 E12.17024 ; skirt
G1 X98.288 Y116.627 E12.18859 ; skirt
G1 X98.261 Y115.693 E12.20693 ; skirt
G1 X98.271 Y114.793 E12.22463 ; skirt
G1 X99.247 Y86.613 E12.77853 ; skirt
G1 X99.344 Y85.404 E12.80236 ; skirt
G1 X99.498 Y84.328 E12.82370 ; skirt
G1 X99.819 Y82.860 E12.85322 ; skirt
G1 X100.897 Y80.011 E12.91306 ; skirt
G1 X102.645 Y77.581 E12.97187 ; skirt
G1 X102.994 Y77.712 F7800.000 ; move to first skirt point
G1 X105.336 Y75.838 E13.03080 F1800.000 ; skirt
G1 X108.089 Y74.646 E13.08974 ; skirt
G1 X111.152 Y74.221 E13.15048 ; skirt
G1 X141.082 Y74.200 E13.73843 ; skirt
G1 X144.056 Y74.596 E13.79736 ; skirt
G1 X146.821 Y75.761 E13.85630 ; skirt
G1 X149.181 Y77.612 E13.91523 ; skirt
G1 X150.972 Y80.019 E13.97416 ; skirt
G1 X151.748 Y81.744 E14.01133 ; skirt
G1 X156.577 Y95.450 E14.29679 ; skirt
G1 X157.123 Y97.731 E14.34286 ; skirt
G1 X157.293 Y99.025 E14.36850 ; skirt
G1 X157.293 Y101.975 E14.42645 ; skirt
G1 X157.122 Y103.276 E14.45222 ; skirt
G1 X156.577 Y105.550 E14.49816 ; skirt
G1 X151.748 Y119.256 E14.78362 ; skirt
G1 X150.384 Y121.928 E14.84256 ; skirt
G1 X148.365 Y124.147 E14.90149 ; skirt
G1 X146.144 Y125.607 E14.95371 ; skirt
G1 X136.144 Y130.607 E15.17334 ; skirt
G1 X133.306 Y131.581 E15.23228 ; skirt
G1 X131.090 Y131.800 E15.27602 ; skirt
G1 X111.090 Y131.800 E15.66890 ; skirt
G1 X108.117 Y131.402 E15.72784 ; skirt
G1 X105.353 Y130.235 E15.78677 ; skirt
G1 X102.993 Y128.382 E15.84570 ; skirt
G1 X100.932 Y125.450 E15.91612 ; skirt
G1 X100.360 Y124.195 E15.94321 ; skirt
G1 X99.865 Y122.907 E15.97030 ; skirt
G1 X99.580 Y122.033 E15.98836 ; skirt
G1 X99.331 Y121.148 E16.00643 ; skirt
G1 X99.118 Y120.254 E16.02449 ; skirt
G1 X98.942 Y119.351 E16.04256 ; skirt
G1 X98.803 Y118.442 E16.06062 ; skirt
G1 X98.702 Y117.529 E16.07868 ; skirt
G1 X98.637 Y116.611 E16.09674 ; skirt
G1 X98.611 Y115.692 E16.11480 ; skirt
G1 X98.621 Y114.805 E16.13224 ; skirt
G1 X99.597 Y86.631 E16.68603 ; skirt
G1 X99.692 Y85.444 E16.70941 ; skirt
G1 X99.843 Y84.387 E16.73038 ; skirt
G1 X100.160 Y82.940 E16.75948 ; skirt
G1 X101.227 Y80.136 E16.81841 ; skirt
G1 X102.963 Y77.754 E16.87631 ; skirt
G1 X103.311 Y77.887 F7800.000 ; move to first skirt point
G1 X105.636 Y76.067 E16.93432 F1800.000 ; skirt
G1 X108.363 Y74.934 E16.99233 ; skirt
G1 X111.153 Y74.571 E17.04759 ; skirt
G1 X141.082 Y74.550 E17.63554 ; skirt
G1 X144.009 Y74.946 E17.69355 ; skirt
G1 X146.723 Y76.110 E17.75156 ; skirt
G1 X149.027 Y77.956 E17.80957 ; skirt
G1 X150.754 Y80.352 E17.86757 ; skirt
G1 X151.418 Y81.861 E17.89996 ; skirt
G1 X156.247 Y95.567 E18.18543 ; skirt
G1 X156.776 Y97.777 E18.23007 ; skirt
G1 X156.946 Y99.071 E18.25571 ; skirt
G1 X156.946 Y101.929 E18.31186 ; skirt
G1 X156.775 Y103.230 E18.33763 ; skirt
G1 X156.247 Y105.433 E18.38214 ; skirt
G1 X151.418 Y119.139 E18.66761 ; skirt
G1 X150.070 Y121.767 E18.72562 ; skirt
G1 X148.069 Y123.938 E18.78363 ; skirt
G1 X145.987 Y125.294 E18.83243 ; skirt
G1 X135.987 Y130.294 E19.05206 ; skirt
G1 X133.192 Y131.246 E19.11007 ; skirt
G1 X131.090 Y131.450 E19.15155 ; skirt
G1 X111.090 Y131.450 E19.54443 ; skirt
G1 X108.164 Y131.052 E19.60244 ; skirt
G1 X105.451 Y129.886 E19.66045 ; skirt
G1 X103.148 Y128.038 E19.71846 ; skirt
G1 X101.247 Y125.297 E19.78400 ; skirt
G1 X100.863 Y124.477 E19.80178 ; skirt
G1 X100.580 Y123.812 E19.81597 ; skirt
G1 X100.253 Y122.956 E19.83398 ; skirt
G1 X100.052 Y122.365 E19.84624 ; skirt
G1 X99.789 Y121.499 E19.86401 ; skirt
G1 X99.561 Y120.623 E19.88180 ; skirt
G1 X99.370 Y119.738 E19.89958 ; skirt
G1 X99.214 Y118.846 E19.91736 ; skirt
G1 X99.096 Y117.949 E19.93514 ; skirt
G1 X99.014 Y117.047 E19.95293 ; skirt
G1 X98.969 Y116.143 E19.97071 ; skirt
G1 X98.962 Y115.238 E19.98849 ; skirt
G1 X99.947 Y86.648 E20.55045 ; skirt
G1 X100.040 Y85.485 E20.57338 ; skirt
G1 X100.188 Y84.446 E20.59399 ; skirt
G1 X100.501 Y83.020 E20.62267 ; skirt
G1 X101.556 Y80.263 E20.68067 ; skirt
G1 X103.280 Y77.929 E20.73765 ; skirt
G1 X103.628 Y78.064 F7800.000 ; move to first skirt point
G1 X105.935 Y76.299 E20.79472 F1800.000 ; skirt
G1 X108.635 Y75.226 E20.85179 ; skirt
G1 X111.153 Y74.921 E20.90162 ; skirt
G1 X141.083 Y74.900 E21.48956 ; skirt
G1 X143.961 Y75.296 E21.54663 ; skirt
G1 X146.623 Y76.459 E21.60370 ; skirt
G1 X148.870 Y78.300 E21.66077 ; skirt
G1 X151.088 Y81.977 E21.74512 ; skirt
G1 X155.917 Y95.683 E22.03059 ; skirt
G1 X156.429 Y97.822 E22.07380 ; skirt
G1 X156.599 Y99.116 E22.09944 ; skirt
G1 X156.599 Y101.884 E22.15380 ; skirt
G1 X156.428 Y103.184 E22.17957 ; skirt
G1 X155.917 Y105.317 E22.22265 ; skirt
G1 X151.088 Y119.023 E22.50812 ; skirt
G1 X149.756 Y121.605 E22.56519 ; skirt
G1 X147.773 Y123.728 E22.62226 ; skirt
G1 X145.831 Y124.981 E22.66767 ; skirt
G1 X135.831 Y129.981 E22.88730 ; skirt
G1 X133.079 Y130.912 E22.94437 ; skirt
G1 X131.090 Y131.100 E22.98360 ; skirt
G1 X111.090 Y131.100 E23.37649 ; skirt
G1 X108.212 Y130.702 E23.43356 ; skirt
G1 X105.551 Y129.537 E23.49063 ; skirt
G1 X103.305 Y127.694 E23.54770 ; skirt
G1 X101.561 Y125.143 E23.60840 ; skirt
G1 X101.183 Y124.337 E23.62590 ; skirt
G1 X100.904 Y123.680 E23.63992 ; skirt
G1 X100.583 Y122.837 E23.65764 ; skirt
G1 X100.385 Y122.258 E23.66966 ; skirt
G1 X100.126 Y121.406 E23.68715 ; skirt
G1 X99.902 Y120.543 E23.70466 ; skirt
G1 X99.713 Y119.673 E23.72216 ; skirt
G1 X99.561 Y118.795 E23.73966 ; skirt
G1 X99.444 Y117.912 E23.75716 ; skirt
G1 X99.363 Y117.025 E23.77466 ; skirt
G1 X99.319 Y116.135 E23.79216 ; skirt
G1 X99.311 Y115.244 E23.80966 ; skirt
G1 X100.296 Y86.666 E24.37139 ; skirt
G1 X100.387 Y85.525 E24.39388 ; skirt
G1 X100.533 Y84.505 E24.41411 ; skirt
G1 X100.841 Y83.100 E24.44237 ; skirt
G1 X101.886 Y80.389 E24.49944 ; skirt
G1 X103.596 Y78.106 E24.55548 ; skirt
G1 X103.944 Y78.243 F7800.000 ; move to first skirt point
G1 X106.233 Y76.534 E24.61159 F1800.000 ; skirt
G1 X108.904 Y75.522 E24.66771 ; skirt
G1 X111.153 Y75.271 E24.71216 ; skirt
G1 X141.083 Y75.250 E25.30010 ; skirt
G1 X143.912 Y75.646 E25.35622 ; skirt
G1 X146.522 Y76.807 E25.41233 ; skirt
G1 X148.710 Y78.644 E25.46845 ; skirt
G1 X150.757 Y82.093 E25.54725 ; skirt
G1 X155.587 Y95.799 E25.83272 ; skirt
G1 X156.082 Y97.868 E25.87451 ; skirt
G1 X156.252 Y99.162 E25.90015 ; skirt
G1 X156.252 Y101.838 E25.95271 ; skirt
G1 X156.081 Y103.138 E25.97847 ; skirt
G1 X155.587 Y105.201 E26.02014 ; skirt
G1 X150.757 Y118.907 E26.30561 ; skirt
G1 X149.442 Y121.442 E26.36172 ; skirt
G1 X147.478 Y123.516 E26.41784 ; skirt
G1 X145.674 Y124.668 E26.45987 ; skirt
G1 X135.674 Y129.668 E26.67950 ; skirt
G1 X132.966 Y130.577 E26.73562 ; skirt
G1 X131.090 Y130.750 E26.77263 ; skirt
G1 X111.090 Y130.750 E27.16551 ; skirt
G1 X108.261 Y130.352 E27.22163 ; skirt
G1 X105.652 Y129.189 E27.27774 ; skirt
G1 X103.466 Y127.351 E27.33386 ; skirt
G1 X101.876 Y124.990 E27.38977 ; skirt
G1 X101.504 Y124.196 E27.40698 ; skirt
G1 X101.228 Y123.547 E27.42084 ; skirt
G1 X100.912 Y122.718 E27.43827 ; skirt
G1 X100.636 Y121.894 E27.45533 ; skirt
G1 X100.243 Y120.464 E27.48447 ; skirt
G1 X100.057 Y119.608 E27.50169 ; skirt
G1 X99.907 Y118.744 E27.51891 ; skirt
G1 X99.792 Y117.875 E27.53613 ; skirt
G1 X99.713 Y117.002 E27.55335 ; skirt
G1 X99.669 Y116.126 E27.57057 ; skirt
G1 X99.661 Y115.250 E27.58779 ; skirt
G1 X100.646 Y86.684 E28.14929 ; skirt
G1 X100.735 Y85.565 E28.17133 ; skirt
G1 X100.878 Y84.565 E28.19118 ; skirt
G1 X101.182 Y83.180 E28.21903 ; skirt
G1 X102.216 Y80.517 E28.27514 ; skirt
G1 X103.912 Y78.285 E28.33023 ; skirt
G1 X104.260 Y78.423 F7800.000 ; move to first skirt point
G1 X106.529 Y76.771 E28.38537 F1800.000 ; skirt
G1 X109.171 Y75.823 E28.44052 ; skirt
G1 X111.153 Y75.621 E28.47965 ; skirt
G1 X141.083 Y75.600 E29.06760 ; skirt
G1 X143.862 Y75.996 E29.12274 ; skirt
G1 X146.418 Y77.156 E29.17789 ; skirt
G1 X148.546 Y78.987 E29.23303 ; skirt
G1 X150.427 Y82.210 E29.30633 ; skirt
G1 X155.257 Y95.916 E29.59180 ; skirt
G1 X155.735 Y97.914 E29.63216 ; skirt
G1 X155.905 Y99.208 E29.65780 ; skirt
G1 X155.905 Y101.792 E29.70857 ; skirt
G1 X155.734 Y103.092 E29.73433 ; skirt
G1 X155.257 Y105.084 E29.77457 ; skirt
G1 X150.427 Y118.790 E30.06004 ; skirt
G1 X149.128 Y121.279 E30.11518 ; skirt
G1 X147.183 Y123.303 E30.17033 ; skirt
G1 X145.517 Y124.355 E30.20903 ; skirt
G1 X135.517 Y129.355 E30.42866 ; skirt
G1 X132.854 Y130.242 E30.48380 ; skirt
G1 X131.090 Y130.400 E30.51860 ; skirt
G1 X111.090 Y130.400 E30.91148 ; skirt
G1 X108.311 Y130.002 E30.96663 ; skirt
G1 X105.756 Y128.840 E31.02177 ; skirt
G1 X103.629 Y127.008 E31.07691 ; skirt
G1 X102.190 Y124.837 E31.12808 ; skirt
G1 X101.824 Y124.056 E31.14501 ; skirt
G1 X101.552 Y123.415 E31.15870 ; skirt
G1 X101.241 Y122.599 E31.17585 ; skirt
G1 X100.970 Y121.789 E31.19263 ; skirt
G1 X100.584 Y120.385 E31.22124 ; skirt
G1 X100.401 Y119.542 E31.23817 ; skirt
G1 X100.253 Y118.693 E31.25511 ; skirt
G1 X100.140 Y117.838 E31.27205 ; skirt
G1 X100.062 Y116.979 E31.28899 ; skirt
G1 X100.019 Y116.118 E31.30593 ; skirt
G1 X100.011 Y115.256 E31.32286 ; skirt
G1 X100.995 Y86.701 E31.88413 ; skirt
G1 X101.083 Y85.606 E31.90572 ; skirt
G1 X101.222 Y84.624 E31.92521 ; skirt
G1 X101.523 Y83.260 E31.95264 ; skirt
G1 X102.545 Y80.646 E32.00778 ; skirt
G1 X104.228 Y78.465 E32.06189 ; skirt
G1 X104.575 Y78.606 F7800.000 ; move to first skirt point
G1 X106.825 Y77.012 E32.11605 F1800.000 ; skirt
G1 X109.436 Y76.128 E32.17021 ; skirt
G1 X111.154 Y75.971 E32.20409 ; skirt
G1 X141.083 Y75.950 E32.79204 ; skirt
G1 X143.812 Y76.346 E32.84619 ; skirt
G1 X146.313 Y77.505 E32.90035 ; skirt
G1 X148.379 Y79.330 E32.95450 ; skirt
G1 X150.097 Y82.326 E33.02235 ; skirt
G1 X154.927 Y96.032 E33.30782 ; skirt
G1 X155.388 Y97.959 E33.34675 ; skirt
G1 X155.558 Y99.254 E33.37239 ; skirt
G1 X155.558 Y101.746 E33.42137 ; skirt
G1 X155.387 Y103.046 E33.44712 ; skirt
G1 X154.927 Y104.968 E33.48594 ; skirt
G1 X150.097 Y118.674 E33.77141 ; skirt
G1 X148.815 Y121.115 E33.82556 ; skirt
G1 X146.890 Y123.087 E33.87972 ; skirt
G1 X145.361 Y124.042 E33.91512 ; skirt
G1 X135.361 Y129.042 E34.13475 ; skirt
G1 X132.743 Y129.906 E34.18891 ; skirt
G1 X131.090 Y130.050 E34.22150 ; skirt
G1 X111.090 Y130.050 E34.61439 ; skirt
G1 X108.362 Y129.652 E34.66854 ; skirt
G1 X105.861 Y128.492 E34.72270 ; skirt
G1 X103.797 Y126.665 E34.77685 ; skirt
G1 X102.505 Y124.683 E34.82332 ; skirt
G1 X102.145 Y123.916 E34.83997 ; skirt
G1 X101.817 Y123.134 E34.85664 ; skirt
G1 X101.521 Y122.339 E34.87329 ; skirt
G1 X101.257 Y121.533 E34.88995 ; skirt
G1 X100.925 Y120.306 E34.91493 ; skirt
G1 X100.745 Y119.477 E34.93159 ; skirt
