; generated by Slic3r 1.2.9 on 2015-08-27 at 00:11:39

; external perimeters extrusion width = 0.35mm
; perimeters extrusion width = 0.39mm
; infill extrusion width = 0.39mm
; solid infill extrusion width = 0.39mm
; top infill extrusion width = 0.39mm

M107 ; disable fan
M190 S60 ; set bed temperature
M104 S205 ; set temperature
G28 ; home all axes
G1 Z5 F5000 ; lift nozzle

M109 S205 ; wait for temperature to be reached
G21 ; set units to millimeters
G90 ; use absolute coordinates
M83 ; use relative distances for extrusion
G1 E-1.00000 F1800.00000 ; retract
G1 Z0.350 F7800.000 ; move to next layer (0)
G1 X39.748 Y74.668 F7800.000 ; move to first skirt point
G1 E1.00000 F1800.00000 ; unretract
G1 X41.700 Y73.628 E0.20108 F1080.000 ; skirt
G1 X44.000 Y73.254 E0.21193 ; skirt
G1 X156.000 Y73.254 E10.18411 ; skirt
G1 X158.367 Y73.651 E0.21823 ; skirt
G1 X160.419 Y74.756 E0.21193 F1080.000 ; skirt
G1 X161.675 Y75.723 E0.14419 ; skirt
G1 X163.365 Y77.215 E0.20493 ; skirt
G1 X164.550 Y78.419 E0.15360 ; skirt
G1 X164.892 Y78.794 E0.04615 ; skirt
G1 X165.912 Y79.992 E0.14308 ; skirt
G1 X166.190 Y80.346 E0.04091 ; skirt
G1 X167.183 Y81.698 E0.15253 ; skirt
G1 X168.163 Y83.229 E0.16529 ; skirt
G1 X168.431 Y83.686 E0.04821 ; skirt
G1 X169.220 Y85.152 E0.15137 ; skirt
G1 X170.055 Y86.981 E0.18281 ; skirt
G1 X170.759 Y88.860 E0.18250 ; skirt
G1 X171.284 Y90.622 E0.16715 ; skirt
G1 X171.416 Y91.136 E0.04824 ; skirt
G1 X171.732 Y92.584 E0.13480 ; skirt
G1 X171.827 Y93.106 E0.04819 ; skirt
G1 X172.062 Y94.727 E0.14892 ; skirt
G1 X172.211 Y96.578 E0.16891 ; skirt
G1 X172.233 Y97.108 E0.04823 ; skirt
G1 X172.239 Y98.736 E0.14801 ; skirt
G1 X172.118 Y100.739 E0.18252 ; skirt
G1 X171.856 Y102.729 E0.18251 ; skirt
G1 X171.484 Y104.570 E0.17079 ; skirt
G1 X171.359 Y105.086 E0.04822 ; skirt
G1 X170.927 Y106.610 E0.14408 ; skirt
G1 X170.794 Y107.017 E0.03893 ; skirt
G1 X170.251 Y108.524 E0.14566 ; skirt
G1 X169.498 Y110.261 E0.17217 ; skirt
G1 X169.268 Y110.739 E0.04821 ; skirt
G1 X168.526 Y112.144 E0.14445 ; skirt
G1 X167.478 Y113.856 E0.18252 ; skirt
G1 X166.311 Y115.492 E0.18273 ; skirt
G1 X165.094 Y116.970 E0.17413 ; skirt
G1 X164.741 Y117.366 E0.04822 ; skirt
G1 X163.653 Y118.498 E0.14275 ; skirt
G1 X162.234 Y119.799 E0.17506 ; skirt
G1 X161.829 Y120.141 E0.04822 ; skirt
G1 X160.622 Y121.088 E0.13953 ; skirt
G1 X158.949 Y122.240 E0.18466 ; skirt
G1 X157.221 Y123.258 E0.18240 ; skirt
G1 X155.424 Y124.154 E0.18254 ; skirt
G1 X153.619 Y124.902 E0.17767 ; skirt
G1 X153.121 Y125.085 E0.04822 ; skirt
G1 X151.667 Y125.559 E0.13907 ; skirt
G1 X149.765 Y126.051 E0.17872 ; skirt
G1 X149.246 Y126.163 E0.04821 ; skirt
G1 X147.750 Y126.427 E0.13813 ; skirt
G1 X147.261 Y126.496 E0.04489 ; skirt
G1 X145.755 Y126.655 E0.13770 ; skirt
G1 X145.258 Y126.689 E0.04532 ; skirt
G1 X143.500 Y126.746 E0.15994 ; skirt
G1 X56.249 Y126.742 E7.93371 ; skirt
G1 X54.742 Y126.689 E0.13711 ; skirt
G1 X54.245 Y126.654 E0.04534 ; skirt
G1 X52.739 Y126.496 E0.13768 ; skirt
G1 X52.250 Y126.427 E0.04488 ; skirt
G1 X50.754 Y126.163 E0.13814 ; skirt
G1 X50.236 Y126.051 E0.04822 ; skirt
G1 X48.333 Y125.559 E0.17872 ; skirt
G1 X46.430 Y124.922 E0.18242 ; skirt
G1 X44.576 Y124.154 E0.18250 ; skirt
G1 X43.191 Y123.477 E0.14017 ; skirt
G1 X42.779 Y123.258 E0.04242 ; skirt
G1 X41.441 Y122.483 E0.14060 ; skirt
G1 X41.050 Y122.240 E0.04187 ; skirt
G1 X39.765 Y121.369 E0.14114 ; skirt
G1 X39.396 Y121.102 E0.04142 ; skirt
G1 X38.171 Y120.141 E0.14160 ; skirt
G1 X37.766 Y119.799 E0.04821 ; skirt
G1 X36.346 Y118.497 E0.17519 ; skirt
G1 X34.964 Y117.040 E0.18256 ; skirt
G1 X33.688 Y115.491 E0.18249 ; skirt
G1 X32.523 Y113.857 E0.18253 ; skirt
G1 X31.475 Y112.145 E0.18249 ; skirt
G1 X30.548 Y110.364 E0.18255 ; skirt
G1 X29.748 Y108.524 E0.18246 ; skirt
G1 X29.206 Y107.017 E0.14560 ; skirt
G1 X29.072 Y106.609 E0.03904 ; skirt
G1 X28.641 Y105.086 E0.14398 ; skirt
G1 X28.538 Y104.675 E0.03849 ; skirt
G1 X28.214 Y103.119 E0.14453 ; skirt
G1 X28.140 Y102.708 E0.03801 ; skirt
G1 X27.925 Y101.127 E0.14501 ; skirt
G1 X27.872 Y100.600 E0.04822 ; skirt
G1 X27.761 Y98.736 E0.16977 ; skirt
G1 X27.779 Y96.729 E0.18248 ; skirt
G1 X27.937 Y94.728 E0.18251 ; skirt
G1 X28.235 Y92.743 E0.18253 ; skirt
G1 X28.670 Y90.784 E0.18251 ; skirt
G1 X29.241 Y88.859 E0.18253 ; skirt
G1 X29.945 Y86.980 E0.18252 ; skirt
G1 X30.629 Y85.466 E0.15104 ; skirt
G1 X30.864 Y84.990 E0.04822 ; skirt
G1 X31.569 Y83.686 E0.13480 ; skirt
G1 X31.837 Y83.229 E0.04821 ; skirt
G1 X32.817 Y81.698 E0.16530 ; skirt
G1 X33.810 Y80.346 E0.15252 ; skirt
G1 X34.111 Y79.966 E0.04405 ; skirt
G1 X35.108 Y78.794 E0.13993 ; skirt
G1 X35.450 Y78.419 E0.04616 ; skirt
G1 X36.634 Y77.215 E0.15356 ; skirt
G1 X38.294 Y75.748 E0.20139 ; skirt
G1 X39.581 Y74.756 E0.14777 ; skirt
G1 X39.701 Y74.692 E0.01238 ; skirt
G1 X40.033 Y75.214 F7800.000 ; move to first skirt point
G1 X41.995 Y74.189 E0.20123 F1080.000 ; skirt
G1 X44.000 Y73.879 E0.18452 ; skirt
G1 X156.000 Y73.879 E10.18411 ; skirt
G1 X158.259 Y74.276 E0.20854 ; skirt
G1 X160.038 Y75.252 E0.18452 F1080.000 ; skirt
G1 X161.318 Y76.237 E0.14691 ; skirt
G1 X162.929 Y77.662 E0.19561 ; skirt
G1 X164.103 Y78.856 E0.15225 ; skirt
G1 X164.416 Y79.199 E0.04218 ; skirt
G1 X165.433 Y80.394 E0.14262 ; skirt
G1 X165.687 Y80.717 E0.03739 ; skirt
G1 X166.671 Y82.057 E0.15118 ; skirt
G1 X167.635 Y83.563 E0.16266 ; skirt
G1 X167.881 Y83.983 E0.04423 ; skirt
G1 X168.664 Y85.437 E0.15012 ; skirt
G1 X169.414 Y87.074 E0.16373 ; skirt
G1 X169.599 Y87.524 E0.04423 ; skirt
G1 X170.114 Y88.914 E0.13480 ; skirt
G1 X170.268 Y89.375 E0.04423 ; skirt
G1 X170.727 Y90.948 E0.14894 ; skirt
G1 X171.122 Y92.718 E0.16491 ; skirt
G1 X171.209 Y93.196 E0.04422 ; skirt
G1 X171.443 Y94.805 E0.14788 ; skirt
G1 X171.597 Y96.765 E0.17871 ; skirt
G1 X171.614 Y98.728 E0.17855 ; skirt
G1 X171.504 Y100.559 E0.16677 ; skirt
G1 X171.456 Y101.043 E0.04424 ; skirt
G1 X171.242 Y102.613 E0.14409 ; skirt
G1 X171.175 Y102.992 E0.03496 ; skirt
G1 X170.847 Y104.561 E0.14573 ; skirt
G1 X170.354 Y106.342 E0.16810 ; skirt
G1 X170.206 Y106.806 E0.04423 ; skirt
G1 X169.666 Y108.305 E0.14490 ; skirt
G1 X168.883 Y110.105 E0.17852 ; skirt
G1 X167.977 Y111.846 E0.17845 ; skirt
G1 X167.001 Y113.441 E0.17004 ; skirt
G1 X166.730 Y113.845 E0.04424 ; skirt
G1 X165.822 Y115.103 E0.14103 ; skirt
G1 X165.564 Y115.432 E0.03801 ; skirt
G1 X164.560 Y116.635 E0.14249 ; skirt
G1 X163.263 Y118.002 E0.17134 ; skirt
G1 X162.915 Y118.341 E0.04424 ; skirt
G1 X161.759 Y119.386 E0.14169 ; skirt
G1 X160.222 Y120.608 E0.17853 ; skirt
G1 X158.602 Y121.720 E0.17866 ; skirt
G1 X156.911 Y122.716 E0.17847 ; skirt
G1 X155.152 Y123.591 E0.17861 ; skirt
G1 X153.385 Y124.323 E0.17398 ; skirt
G1 X152.928 Y124.491 E0.04424 ; skirt
G1 X151.476 Y124.964 E0.13888 ; skirt
G1 X149.613 Y125.445 E0.17494 ; skirt
G1 X149.137 Y125.547 E0.04424 ; skirt
G1 X147.643 Y125.812 E0.13802 ; skirt
G1 X145.691 Y126.033 E0.17863 ; skirt
G1 X145.236 Y126.065 E0.04141 ; skirt
G1 X143.500 Y126.121 E0.15795 ; skirt
G1 X56.271 Y126.117 E7.93174 ; skirt
G1 X54.309 Y126.033 E0.17850 ; skirt
G1 X52.804 Y125.874 E0.13761 ; skirt
G1 X50.863 Y125.547 E0.17902 ; skirt
G1 X50.387 Y125.445 E0.04424 ; skirt
G1 X48.525 Y124.964 E0.17493 ; skirt
G1 X46.663 Y124.342 E0.17849 ; skirt
G1 X44.848 Y123.592 E0.17856 ; skirt
G1 X43.466 Y122.915 E0.13988 ; skirt
G1 X43.090 Y122.716 E0.03876 ; skirt
G1 X41.755 Y121.942 E0.14028 ; skirt
G1 X41.397 Y121.720 E0.03827 ; skirt
G1 X40.115 Y120.852 E0.14078 ; skirt
G1 X39.778 Y120.608 E0.03785 ; skirt
G1 X38.556 Y119.650 E0.14120 ; skirt
G1 X38.185 Y119.336 E0.04424 ; skirt
G1 X36.793 Y118.060 E0.17171 ; skirt
G1 X35.440 Y116.635 E0.17862 ; skirt
G1 X34.191 Y115.120 E0.17856 ; skirt
G1 X33.050 Y113.521 E0.17859 ; skirt
G1 X32.024 Y111.847 E0.17856 ; skirt
G1 X31.117 Y110.105 E0.17861 ; skirt
G1 X30.334 Y108.305 E0.17853 ; skirt
G1 X29.794 Y106.806 E0.14484 ; skirt
G1 X29.671 Y106.431 E0.03585 ; skirt
G1 X29.243 Y104.916 E0.14319 ; skirt
G1 X29.148 Y104.539 E0.03535 ; skirt
G1 X28.825 Y102.992 E0.14369 ; skirt
G1 X28.758 Y102.614 E0.03491 ; skirt
G1 X28.544 Y101.043 E0.14413 ; skirt
G1 X28.496 Y100.559 E0.04424 ; skirt
G1 X28.386 Y98.729 E0.16675 ; skirt
G1 X28.403 Y96.765 E0.17855 ; skirt
G1 X28.557 Y94.807 E0.17858 ; skirt
G1 X28.848 Y92.865 E0.17860 ; skirt
G1 X29.273 Y90.947 E0.17857 ; skirt
G1 X29.832 Y89.064 E0.17859 ; skirt
G1 X30.520 Y87.225 E0.17858 ; skirt
G1 X31.198 Y85.723 E0.14982 ; skirt
G1 X31.414 Y85.287 E0.04424 ; skirt
G1 X32.119 Y83.983 E0.13480 ; skirt
G1 X32.365 Y83.563 E0.04424 ; skirt
G1 X33.329 Y82.056 E0.16267 ; skirt
G1 X34.590 Y80.367 E0.19168 ; skirt
G1 X35.584 Y79.199 E0.13948 ; skirt
G1 X35.897 Y78.856 E0.04218 ; skirt
G1 X37.070 Y77.663 E0.15222 ; skirt
G1 X38.682 Y76.237 E0.19563 ; skirt
G1 X39.987 Y75.239 E0.14943 ; skirt
G1 E-1.00000 F1800.00000 ; retract
G1 X41.987 Y84.259 F7800.000 ; move to first infill point
G1 E1.00000 F1800.00000 ; unretract
G1 X41.579 Y85.856 E0.14991 F1080.000 ; infill
G1 X41.170 Y87.685 E0.17046 ; infill
G1 X40.928 Y88.912 E0.11364 ; infill
G1 X40.614 Y90.760 E0.17046 ; infill
G1 X40.358 Y92.617 E0.17046 ; infill
G1 X40.220 Y93.859 E0.11364 ; infill
G1 X40.060 Y95.727 E0.17046 ; infill
G1 X39.986 Y96.974 E0.11364 ; infill
G1 X39.924 Y98.848 E0.17046 ; infill
G1 X39.921 Y100.722 E0.17046 ; infill
G1 X39.976 Y102.596 E0.17046 ; infill
G1 X40.045 Y103.844 E0.11364 ; infill
G1 X40.140 Y105.090 E0.11364 ; infill
G1 X40.331 Y106.955 E0.17046 ; infill
G1 X40.580 Y108.813 E0.17046 ; infill
G1 X40.844 Y110.421 E0.14819 ; infill
G1 X41.661 Y111.390 F7800.000 ; move to first infill point
G1 X41.412 Y110.044 E0.12442 F1080.000 ; infill
G1 X41.121 Y108.193 E0.17046 ; infill
G1 X40.960 Y106.953 E0.11364 ; infill
G1 X40.767 Y105.089 E0.17046 ; infill
G1 X40.671 Y103.843 E0.11364 ; infill
G1 X40.576 Y101.970 E0.17046 ; infill
G1 X40.540 Y100.096 E0.17046 ; infill
G1 X40.564 Y98.222 E0.17046 ; infill
G1 X40.646 Y96.349 E0.17046 ; infill
G1 X40.734 Y95.102 E0.11364 ; infill
G1 X40.915 Y93.236 E0.17046 ; infill
G1 X41.154 Y91.377 E0.17046 ; infill
G1 X41.346 Y90.142 E0.11364 ; infill
G1 X41.683 Y88.298 E0.17046 ; infill
G1 X42.077 Y86.465 E0.17046 ; infill
G1 X42.494 Y84.784 E0.15754 ; infill
G1 X41.074 Y85.293 F7800.000 ; move to first infill point
G1 X40.757 Y86.636 E0.12547 F1080.000 ; infill
G1 X40.496 Y87.858 E0.11364 ; infill
G1 X40.261 Y89.086 E0.11364 ; infill
G1 X39.956 Y90.935 E0.17046 ; infill
G1 X39.784 Y92.173 E0.11364 ; infill
G1 X39.574 Y94.036 E0.17046 ; infill
G1 X39.466 Y95.281 E0.11364 ; infill
G1 X39.352 Y97.152 E0.17046 ; infill
G1 X39.309 Y98.401 E0.11364 ; infill
G1 X39.291 Y100.276 E0.17046 ; infill
G1 X39.312 Y101.525 E0.11364 ; infill
G1 X39.391 Y103.398 E0.17046 ; infill
G1 X39.476 Y104.645 E0.11364 ; infill
G1 X39.651 Y106.512 E0.17046 ; infill
G1 X39.800 Y107.752 E0.11364 ; infill
G1 X40.025 Y109.311 E0.14321 ; infill
G1 X39.205 Y108.019 F7800.000 ; move to first infill point
G1 X38.994 Y106.244 E0.16253 F1080.000 ; infill
G1 X38.878 Y104.999 E0.11364 ; infill
G1 X38.786 Y103.753 E0.11364 ; infill
G1 X38.721 Y102.505 E0.11364 ; infill
G1 X38.680 Y101.256 E0.11364 ; infill
G1 X38.665 Y100.006 E0.11364 ; infill
G1 X38.676 Y98.757 E0.11364 ; infill
G1 X38.712 Y97.507 E0.11364 ; infill
G1 X38.773 Y96.259 E0.11364 ; infill
G1 X38.860 Y95.012 E0.11364 ; infill
G1 X38.973 Y93.768 E0.11364 ; infill
G1 X39.189 Y91.905 E0.17046 ; infill
G1 X39.364 Y90.668 E0.11364 ; infill
G1 X39.565 Y89.435 E0.11364 ; infill
G1 X39.791 Y88.205 E0.11364 ; infill
G1 X40.145 Y86.510 E0.15749 ; infill
G1 X39.197 Y87.987 F7800.000 ; move to first infill point
G1 X38.843 Y89.959 E0.18211 F1080.000 ; infill
G1 X38.655 Y91.194 E0.11364 ; infill
G1 X38.492 Y92.433 E0.11364 ; infill
G1 X38.354 Y93.675 E0.11364 ; infill
G1 X38.241 Y94.920 E0.11364 ; infill
G1 X38.153 Y96.167 E0.11364 ; infill
G1 X38.090 Y97.415 E0.11364 ; infill
G1 X38.053 Y98.664 E0.11364 ; infill
G1 X38.040 Y99.914 E0.11364 ; infill
G1 X38.069 Y101.788 E0.17046 ; infill
G1 X38.120 Y103.037 E0.11364 ; infill
G1 X38.196 Y104.284 E0.11364 ; infill
G1 X38.388 Y106.443 E0.19708 ; infill
G1 X37.580 Y104.426 F7800.000 ; move to first infill point
G1 X37.469 Y102.497 E0.17571 F1080.000 ; infill
G1 X37.420 Y100.623 E0.17046 ; infill
G1 X37.426 Y98.748 E0.17046 ; infill
G1 X37.489 Y96.875 E0.17046 ; infill
G1 X37.607 Y95.004 E0.17046 ; infill
G1 X37.782 Y93.137 E0.17046 ; infill
G1 X38.012 Y91.277 E0.17046 ; infill
G1 X38.213 Y89.943 E0.12268 ; infill
G1 X37.184 Y92.861 F7800.000 ; move to first infill point
G1 X36.961 Y95.264 E0.21944 F1080.000 ; infill
G1 X36.851 Y97.136 E0.17046 ; infill
G1 X36.797 Y99.010 E0.17046 ; infill
G1 X36.810 Y101.451 E0.22198 ; infill
G1 X43.078 Y101.982 F7800.000 ; move to first infill point
G1 X43.169 Y103.732 E0.15935 F1080.000 ; infill
G1 X43.266 Y104.978 E0.11364 ; infill
G1 X43.391 Y106.221 E0.11364 ; infill
G1 X43.630 Y108.081 E0.17046 ; infill
G1 X43.930 Y109.931 E0.17046 ; infill
G1 X44.163 Y111.159 E0.11364 ; infill
G1 X44.564 Y112.990 E0.17046 ; infill
G1 X44.879 Y114.257 E0.11865 ; infill
G1 X45.670 Y114.793 F7800.000 ; move to first infill point
G1 X45.266 Y113.239 E0.14599 F1080.000 ; infill
G1 X44.984 Y112.022 E0.11364 ; infill
G1 X44.729 Y110.798 E0.11364 ; infill
G1 X44.500 Y109.569 E0.11364 ; infill
G1 X44.300 Y108.336 E0.11364 ; infill
G1 X44.050 Y106.478 E0.17046 ; infill
G1 X43.918 Y105.235 E0.11364 ; infill
G1 X43.806 Y103.890 E0.12273 ; infill
G1 X44.553 Y105.303 F7800.000 ; move to first infill point
G1 X44.732 Y106.910 E0.14706 F1080.000 ; infill
G1 X44.903 Y108.148 E0.11364 ; infill
G1 X45.102 Y109.382 E0.11364 ; infill
G1 X45.329 Y110.611 E0.11364 ; infill
G1 X45.583 Y111.835 E0.11364 ; infill
G1 X45.864 Y113.052 E0.11364 ; infill
G1 X46.452 Y115.267 E0.20833 ; infill
G1 X47.232 Y115.706 F7800.000 ; move to first infill point
G1 X46.656 Y113.643 E0.19470 F1080.000 ; infill
G1 X46.358 Y112.430 E0.11364 ; infill
G1 X46.088 Y111.210 E0.11364 ; infill
G1 X45.845 Y109.984 E0.11364 ; infill
G1 X45.630 Y108.752 E0.11364 ; infill
G1 X45.443 Y107.517 E0.11364 ; infill
G1 X45.300 Y106.407 E0.10175 ; infill
G1 X46.046 Y107.311 F7800.000 ; move to first infill point
G1 X46.397 Y109.530 E0.20426 F1080.000 ; infill
G1 X46.632 Y110.757 E0.11364 ; infill
G1 X46.895 Y111.979 E0.11364 ; infill
G1 X47.343 Y113.799 E0.17046 ; infill
G1 X47.676 Y115.004 E0.11364 ; infill
G1 X47.999 Y116.082 E0.10233 ; infill
G1 X48.762 Y116.420 F7800.000 ; move to first infill point
G1 X48.422 Y115.327 E0.10410 F1080.000 ; infill
G1 X48.078 Y114.125 E0.11364 ; infill
G1 X47.614 Y112.309 E0.17046 ; infill
G1 X47.213 Y110.478 E0.17046 ; infill
G1 X46.982 Y109.250 E0.11364 ; infill
G1 X46.788 Y108.073 E0.10839 ; infill
G1 X47.528 Y108.734 F7800.000 ; move to first infill point
G1 X47.710 Y109.758 E0.09458 F1080.000 ; infill
G1 X47.956 Y110.984 E0.11364 ; infill
G1 X48.379 Y112.810 E0.17046 ; infill
G1 X48.866 Y114.620 E0.17045 ; infill
G1 X49.521 Y116.728 E0.20066 ; infill
G1 X50.265 Y116.979 F7800.000 ; move to first infill point
G1 X49.714 Y115.282 E0.16222 F1080.000 ; infill
G1 X49.198 Y113.480 E0.17045 ; infill
G1 X48.746 Y111.661 E0.17045 ; infill
G1 X48.481 Y110.439 E0.11364 ; infill
G1 X48.264 Y109.316 E0.10407 ; infill
G1 X48.994 Y109.816 F7800.000 ; move to first infill point
G1 X49.443 Y111.899 E0.19379 F1080.000 ; infill
G1 X49.909 Y113.715 E0.17045 ; infill
G1 X50.440 Y115.513 E0.17045 ; infill
G1 X51.011 Y117.220 E0.16366 ; infill
G1 X51.741 Y117.402 F7800.000 ; move to first infill point
G1 X51.225 Y115.911 E0.14351 F1080.000 ; infill
G1 X50.672 Y114.120 E0.17045 ; infill
G1 X50.186 Y112.309 E0.17045 ; infill
G1 X49.715 Y110.234 E0.19346 ; infill
G1 X50.434 Y110.614 F7800.000 ; move to first infill point
G1 X50.824 Y112.283 E0.15589 F1080.000 ; infill
G1 X51.315 Y114.092 E0.17045 ; infill
G1 X51.873 Y115.882 E0.17045 ; infill
G1 X52.469 Y117.574 E0.16315 ; infill
G1 X53.184 Y117.701 F7800.000 ; move to first infill point
G1 X52.579 Y116.021 E0.16240 F1080.000 ; infill
G1 X52.009 Y114.235 E0.17045 ; infill
G1 X51.506 Y112.429 E0.17045 ; infill
