;Generated with Cura_SteamEngine 15.01
; Default start code
G28 ; Home extruder
M107 ; Turn off fan
G90 ; Absolute positioning
M82 ; Extruder in absolute mode
M190 S55
; Activate all used extruder
M104 T0 S195
G92 E0 ; Reset extruder position
; Wait for all used extruders to reach temperature
M109 T0 S195
;Layer count: 85
;LAYER:0
M107
G0 F15000 X43.875 Y32.725 Z0.300
;TYPE:SKIRT
G1 F2400 X166.225 Y32.725 E5.34106
G1 X166.225 Y74.975 E7.18544
G1 X130.525 Y74.975 E8.74388
G1 X130.525 Y109.297 E10.24217
G1 X126.459 Y129.626 E11.14719
G1 X126.316 Y130.319 E11.17808
G1 X125.679 Y132.151 E11.26275
G1 X124.336 Y134.075 E11.36518
G1 X122.520 Y135.565 E11.46772
G1 X120.368 Y136.505 E11.57024
G1 X118.422 Y136.775 E11.65600
G1 X98.137 Y136.775 E12.54152
G1 X96.303 Y136.533 E12.62228
G1 X94.224 Y135.682 E12.72034
G1 X92.739 Y134.543 E12.80204
G1 X92.209 Y134.014 E12.83473
G1 X91.073 Y132.535 E12.91614
G1 X90.500 Y131.147 E12.98169
G1 X90.220 Y130.474 E13.01351
G1 X89.975 Y128.612 E13.09550
G1 X89.975 Y125.730 E13.22131
G1 X89.804 Y126.236 E13.24462
G1 X89.654 Y126.673 E13.26479
G1 X89.190 Y127.617 E13.31071
G1 X88.982 Y128.032 E13.33098
G1 X88.151 Y129.275 E13.39625
G1 X87.459 Y130.064 E13.44206
G1 X87.157 Y130.407 E13.46201
G1 X86.024 Y131.402 E13.52783
G1 X85.160 Y131.979 E13.57319
G1 X84.770 Y132.240 E13.59367
G1 X83.823 Y132.707 E13.63977
G1 X83.426 Y132.905 E13.65914
G1 X82.414 Y133.247 E13.70577
G1 X81.994 Y133.392 E13.72516
G1 X80.953 Y133.598 E13.77149
G1 X80.527 Y133.686 E13.79048
G1 X79.183 Y133.775 E13.84928
G1 X69.475 Y133.775 E14.27307
G1 X69.475 Y114.725 E15.10468
G1 X74.475 Y114.725 E15.32295
G1 X74.475 Y103.889 E15.79598
G1 X74.641 Y102.624 E15.85168
G1 X74.642 Y102.624 E15.85172
G1 X74.752 Y101.775 E15.88909
G1 X75.708 Y99.465 E15.99823
G1 X76.709 Y98.160 E16.07002
G1 X77.233 Y97.478 E16.10757
G1 X79.214 Y95.959 E16.21654
G1 X79.475 Y95.851 E16.22888
G1 X79.475 Y74.975 E17.14019
G1 X43.875 Y74.975 E18.69427
G1 X43.875 Y32.725 E20.53865
G0 F15000 X44.225 Y33.075
G1 F2400 X165.875 Y33.075 E25.84915
G1 X165.875 Y74.625 E27.66297
G1 X130.175 Y74.625 E29.22142
G1 X130.175 Y109.262 E30.73346
G1 X126.116 Y129.557 E31.63696
G1 X125.978 Y130.226 E31.66678
G1 X125.365 Y131.990 E31.74830
G1 X124.076 Y133.835 E31.84655
G1 X122.336 Y135.263 E31.94482
G1 X120.272 Y136.165 E32.04315
G1 X118.397 Y136.425 E32.12578
G1 X98.160 Y136.425 E33.00921
G1 X96.394 Y136.192 E33.08697
G1 X94.400 Y135.375 E33.18104
G1 X92.970 Y134.279 E33.25969
G1 X92.473 Y133.782 E33.29037
G1 X91.379 Y132.359 E33.36873
G1 X90.824 Y131.013 E33.43228
G1 X90.561 Y130.382 E33.46213
G1 X90.325 Y128.589 E33.54107
G1 X90.325 Y113.925 E34.18121
G1 X90.175 Y113.925 E34.18776
G1 X90.175 Y122.420 E34.55860
G1 X90.099 Y123.576 E34.60917
G1 X89.817 Y125.107 E34.67713
G1 X89.473 Y126.123 E34.72396
G1 X89.330 Y126.538 E34.74312
G1 X88.876 Y127.461 E34.78802
G1 X88.679 Y127.856 E34.80729
G1 X87.873 Y129.061 E34.87058
G1 X87.196 Y129.833 E34.91540
G1 X86.909 Y130.159 E34.93436
G1 X85.811 Y131.123 E34.99815
G1 X84.965 Y131.689 E35.04258
G1 X84.595 Y131.937 E35.06202
G1 X83.668 Y132.393 E35.10712
G1 X83.291 Y132.581 E35.12551
G1 X82.302 Y132.916 E35.17110
G1 X82.302 Y132.915 E35.17114
G1 X81.902 Y133.053 E35.18961
G1 X80.885 Y133.255 E35.23488
G1 X80.885 Y133.254 E35.23492
G1 X80.480 Y133.338 E35.25297
G1 X79.172 Y133.425 E35.31020
G1 X69.825 Y133.425 E35.71823
G1 X69.825 Y115.075 E36.51928
G1 X74.825 Y115.075 E36.73755
G1 X74.825 Y103.912 E37.22486
G1 X74.988 Y102.670 E37.27954
G1 X75.093 Y101.866 E37.31494
G1 X76.014 Y99.641 E37.42006
G1 X76.987 Y98.373 E37.48983
G1 X77.483 Y97.728 E37.52535
G1 X79.391 Y96.264 E37.63034
G1 X79.825 Y96.084 E37.65085
G1 X79.825 Y74.625 E38.58762
G1 X44.225 Y74.625 E40.14170
G1 X44.225 Y33.075 E41.95552
G1 F2400 E37.95552
G0 F15000 X85.875 Y69.625
;TYPE:WALL-INNER
G1 F2400 E41.95552
G1 X98.926 Y69.625 E42.52525
G1 X98.926 Y59.625 E42.96179
G1 X111.072 Y59.625 E43.49201
G1 X111.072 Y69.625 E43.92855
G1 X124.125 Y69.625 E44.49836
G1 X124.125 Y108.663 E46.20252
G1 X120.187 Y128.352 E47.07905
G1 X120.133 Y128.616 E47.09081
G1 X119.926 Y129.212 E47.11835
G1 X119.594 Y129.687 E47.14365
G1 X119.147 Y130.054 E47.16890
G1 X118.615 Y130.287 E47.19425
G1 X117.978 Y130.375 E47.22233
G1 X98.554 Y130.375 E48.07026
G1 X97.965 Y130.297 E48.09620
G1 X97.439 Y130.082 E48.12100
G1 X97.002 Y129.747 E48.14504
G1 X96.666 Y129.309 E48.16914
G1 X96.455 Y128.801 E48.19315
G1 X96.375 Y128.189 E48.22009
G1 X96.375 Y107.875 E49.10688
G1 X84.125 Y107.875 E49.64164
G1 X84.125 Y122.223 E50.26799
G1 X84.085 Y122.829 E50.29450
G1 X83.947 Y123.579 E50.32779
G1 X83.748 Y124.168 E50.35493
G1 X83.457 Y124.771 E50.38416
G1 X83.435 Y124.814 E50.38627
G1 X83.068 Y125.364 E50.41513
G1 X82.622 Y125.872 E50.44464
G1 X82.114 Y126.317 E50.47412
G1 X81.595 Y126.664 E50.50138
G1 X80.995 Y126.965 E50.53068
G1 X80.363 Y127.185 E50.55989
G1 X80.324 Y127.198 E50.56169
G1 X79.707 Y127.320 E50.58914
G1 X78.972 Y127.375 E50.62132
G1 X75.875 Y127.375 E50.75651
G1 X75.875 Y121.125 E51.02935
G1 X80.875 Y121.125 E51.24762
G1 X80.875 Y104.311 E51.98162
G1 X80.989 Y103.439 E52.02001
G1 X81.300 Y102.690 E52.05541
G1 X81.785 Y102.058 E52.09019
G1 X81.795 Y102.045 E52.09090
G1 X82.442 Y101.549 E52.12649
G1 X83.189 Y101.239 E52.16180
G1 X84.061 Y101.125 E52.20019
G1 X85.875 Y101.125 E52.27938
G1 X85.875 Y69.625 E53.65448
G0 F15000 X93.271 Y76.700
G1 F2400 X92.813 Y77.198 E53.68401
G1 X92.500 Y77.787 E53.71313
G1 X92.342 Y78.400 E53.74076
G1 X92.337 Y79.077 E53.77032
G1 X92.519 Y79.764 E53.80134
G1 X92.851 Y80.353 E53.83086
G1 X93.315 Y80.832 E53.85997
G1 X93.850 Y81.172 E53.88764
G1 X94.488 Y81.381 E53.91695
G1 X95.160 Y81.428 E53.94636
G1 X95.824 Y81.302 E53.97586
G1 X96.432 Y81.016 E54.00519
G1 X96.952 Y80.589 E54.03456
G1 X97.349 Y80.044 E54.06400
G1 X97.596 Y79.418 E54.09338
G1 X97.678 Y78.782 E54.12137
G1 X97.595 Y78.074 E54.15249
G1 X97.352 Y77.462 E54.18123
G1 X96.957 Y76.915 E54.21069
G1 X96.433 Y76.483 E54.24033
G1 X95.823 Y76.198 E54.26973
G1 X95.159 Y76.073 E54.29922
G1 X94.482 Y76.117 E54.32884
G1 X93.838 Y76.332 E54.35848
G1 X93.271 Y76.700 E54.38798
G0 F15000 X92.665 Y79.035
G0 X94.497 Y96.115
G1 F2400 X93.857 Y96.323 E54.41736
G1 X93.290 Y96.683 E54.44668
G1 X92.829 Y97.172 E54.47602
G1 X92.506 Y97.763 E54.50542
G1 X92.339 Y98.414 E54.53476
G1 X92.339 Y99.085 E54.56405
G1 X92.506 Y99.736 E54.59339
G1 X92.829 Y100.327 E54.62279
G1 X93.290 Y100.816 E54.65213
G1 X93.857 Y101.176 E54.68145
G1 X94.497 Y101.384 E54.71082
G1 X95.169 Y101.426 E54.74022
G1 X95.829 Y101.300 E54.76955
G1 X96.436 Y101.014 E54.79884
G1 X96.955 Y100.586 E54.82821
G1 X97.350 Y100.042 E54.85755
G1 X97.597 Y99.417 E54.88689
G1 X97.682 Y98.750 E54.91624
G1 X97.597 Y98.083 E54.94560
G1 X97.350 Y97.457 E54.97497
G1 X96.955 Y96.913 E55.00432
G1 X96.436 Y96.485 E55.03369
G1 X95.829 Y96.199 E55.06298
G1 X95.169 Y96.073 E55.09231
G1 X94.497 Y96.115 E55.12171
G0 F15000 X96.714 Y97.139
G0 X97.353 Y98.750
G0 X96.714 Y100.360
G0 X98.074 Y107.875
G1 F2400 X98.074 Y126.860 E55.95047
G1 X98.133 Y127.290 E55.96942
G1 X98.318 Y127.740 E55.99066
G1 X98.614 Y128.125 E56.01186
G1 X99.007 Y128.431 E56.03360
G1 X99.463 Y128.617 E56.05510
G1 X99.890 Y128.675 E56.07391
G1 X116.170 Y128.675 E56.78460
G1 X116.602 Y128.616 E56.80363
G1 X117.051 Y128.431 E56.82483
G1 X117.435 Y128.135 E56.84600
G1 X117.740 Y127.743 E56.86768
G1 X117.929 Y127.286 E56.88927
G1 X117.985 Y126.857 E56.90816
G1 X117.985 Y107.875 E57.73679
G1 X98.074 Y107.875 E58.60599
G0 F15000 X112.506 Y99.736
G1 F2400 X112.829 Y100.327 E58.63539
G1 X113.290 Y100.816 E58.66473
G1 X113.857 Y101.176 E58.69405
G1 X114.497 Y101.384 E58.72342
G1 X115.169 Y101.426 E58.75282
G1 X115.829 Y101.300 E58.78215
G1 X116.436 Y101.014 E58.81144
G1 X116.955 Y100.586 E58.84081
G1 X117.350 Y100.042 E58.87015
G1 X117.597 Y99.417 E58.89949
G1 X117.682 Y98.750 E58.92884
G1 X117.597 Y98.083 E58.95820
G1 X117.350 Y97.457 E58.98757
G1 X116.955 Y96.913 E59.01692
G1 X116.436 Y96.485 E59.04629
G1 X115.829 Y96.199 E59.07558
G1 X115.169 Y96.073 E59.10491
G1 X114.497 Y96.115 E59.13430
G1 X113.857 Y96.323 E59.16368
G1 X113.290 Y96.683 E59.19300
G1 X112.829 Y97.172 E59.22234
G1 X112.506 Y97.763 E59.25174
G1 X112.339 Y98.414 E59.28108
G1 X112.339 Y99.085 E59.31037
G1 X112.506 Y99.736 E59.33971
G0 F15000 X114.488 Y81.381
G1 F2400 X115.160 Y81.428 E59.36912
G1 X115.824 Y81.302 E59.39862
G1 X116.432 Y81.016 E59.42795
G1 X116.952 Y80.589 E59.45732
G1 X117.349 Y80.044 E59.48676
G1 X117.596 Y79.418 E59.51614
G1 X117.678 Y78.782 E59.54413
G1 X117.595 Y78.074 E59.57525
G1 X117.352 Y77.462 E59.60399
G1 X116.957 Y76.915 E59.63345
G1 X116.433 Y76.483 E59.66309
G1 X115.823 Y76.198 E59.69248
G1 X115.159 Y76.073 E59.72198
G1 X114.482 Y76.117 E59.75160
G1 X113.838 Y76.332 E59.78123
G1 X113.271 Y76.700 E59.81074
G1 X112.813 Y77.198 E59.84028
G1 X112.500 Y77.787 E59.86940
G1 X112.342 Y78.400 E59.89703
G1 X112.337 Y79.077 E59.92658
G1 X112.519 Y79.764 E59.95761
G1 X112.851 Y80.353 E59.98712
G1 X113.315 Y80.832 E60.01624
G1 X113.850 Y81.172 E60.04391
G1 X114.488 Y81.381 E60.07322
G0 F15000 X114.556 Y81.035
G1 F2400 X115.139 Y81.075 E60.09873
G1 X115.715 Y80.966 E60.12432
G1 X116.244 Y80.718 E60.14982
G1 X116.695 Y80.347 E60.17532
G1 X117.040 Y79.874 E60.20087
G1 X117.254 Y79.330 E60.22639
G1 X117.327 Y78.769 E60.25109
G1 X117.322 Y78.683 E60.25485
G1 X117.254 Y78.163 E60.27774
G1 X117.043 Y77.631 E60.30273
G1 X116.700 Y77.157 E60.32827
G1 X116.245 Y76.782 E60.35401
G1 X115.714 Y76.533 E60.37961
G1 X115.138 Y76.425 E60.40519
G1 X114.550 Y76.464 E60.43092
G1 X113.991 Y76.650 E60.45663
G1 X113.499 Y76.970 E60.48226
G1 X113.101 Y77.402 E60.50790
G1 X112.828 Y77.914 E60.53323
G1 X112.691 Y78.446 E60.55721
G1 X112.688 Y79.032 E60.58279
G1 X112.846 Y79.631 E60.60983
G1 X113.134 Y80.142 E60.63544
G1 X113.538 Y80.559 E60.66078
G1 X114.001 Y80.853 E60.68473
G1 X114.556 Y81.035 E60.71022
G0 F15000 X113.115 Y80.155
G0 X112.668 Y78.444
G0 X111.422 Y69.275
G1 F2400 X124.475 Y69.275 E61.28004
G1 X124.475 Y108.697 E63.00096
G1 X120.530 Y128.422 E63.87909
G1 X120.471 Y128.708 E63.89184
G1 X120.240 Y129.373 E63.92257
G1 X119.854 Y129.926 E63.95201
G1 X119.329 Y130.357 E63.98166
G1 X118.711 Y130.627 E64.01110
G1 X118.004 Y130.725 E64.04226
G1 X98.531 Y130.725 E64.89233
G1 X97.873 Y130.638 E64.92131
G1 X97.263 Y130.388 E64.95009
G1 X96.752 Y129.997 E64.97817
G1 X96.359 Y129.485 E65.00635
G1 X96.114 Y128.891 E65.03440
G1 X96.025 Y128.212 E65.06429
G1 X96.025 Y108.225 E65.93681
G1 X84.475 Y108.225 E66.44101
G1 X84.475 Y122.231 E67.05243
G1 X84.433 Y122.874 E67.08055
G1 X84.286 Y123.670 E67.11589
G1 X84.079 Y124.282 E67.14409
G1 X84.059 Y124.341 E67.14681
G1 X83.770 Y124.927 E67.17534
G1 X83.344 Y125.579 E67.20934
G1 X82.870 Y126.120 E67.24073
G1 X82.329 Y126.594 E67.27213
G1 X81.739 Y126.989 E67.30313
G1 X81.151 Y127.279 E67.33175
G1 X80.476 Y127.516 E67.36298
G1 X80.417 Y127.537 E67.36571
G1 X79.776 Y127.663 E67.39423
G1 X79.713 Y127.676 E67.39704
G1 X78.980 Y127.725 E67.42911
G1 X75.525 Y127.725 E67.57993
G1 X75.525 Y120.775 E67.88333
G1 X80.525 Y120.775 E68.10160
G1 X80.525 Y104.288 E68.82132
G1 X80.648 Y103.349 E68.86266
G1 X80.994 Y102.515 E68.90208
G1 X81.544 Y101.797 E68.94156
G1 X82.267 Y101.243 E68.98132
G1 X83.099 Y100.898 E69.02064
G1 X84.038 Y100.775 E69.06198
G1 X85.525 Y100.775 E69.12690
G1 X85.525 Y69.275 E70.50199
G1 X98.576 Y69.275 E71.07172
G1 X98.576 Y59.275 E71.50826
G1 X111.422 Y59.275 E72.06904
G1 X111.422 Y69.275 E72.50558
G0 F15000 X97.043 Y77.631
G1 F2400 X96.700 Y77.157 E72.53112
G1 X96.245 Y76.782 E72.55686
G1 X95.714 Y76.533 E72.58246
G1 X95.138 Y76.425 E72.60804
G1 X94.550 Y76.464 E72.63377
G1 X93.991 Y76.650 E72.65949
G1 X93.499 Y76.970 E72.68511
G1 X93.101 Y77.402 E72.71075
G1 X92.828 Y77.914 E72.73608
G1 X92.691 Y78.446 E72.76006
G1 X92.688 Y79.032 E72.78564
G1 X92.846 Y79.631 E72.81269
G1 X93.134 Y80.142 E72.83829
G1 X93.538 Y80.559 E72.86364
G1 X94.001 Y80.853 E72.88758
G1 X94.556 Y81.035 E72.91308
G1 X95.139 Y81.075 E72.93859
G1 X95.715 Y80.966 E72.96418
G1 X96.244 Y80.718 E72.98968
G1 X96.695 Y80.347 E73.01518
G1 X97.040 Y79.874 E73.04073
G1 X97.254 Y79.330 E73.06625
G1 X97.327 Y78.769 E73.09095
G1 X97.322 Y78.683 E73.09471
G1 X97.254 Y78.163 E73.11760
G1 X97.043 Y77.631 E73.14259
G0 F15000 X97.277 Y79.335
G0 X95.147 Y96.425
G1 F2400 X94.563 Y96.461 E73.16813
G1 X94.007 Y96.642 E73.19365
G1 X93.515 Y96.955 E73.21911
G1 X93.115 Y97.380 E73.24459
G1 X92.834 Y97.893 E73.27012
G1 X92.689 Y98.458 E73.29559
G1 X92.689 Y99.041 E73.32104
G1 X92.834 Y99.606 E73.34650
G1 X93.115 Y100.119 E73.37203
G1 X93.515 Y100.544 E73.39751
G1 X94.007 Y100.857 E73.42297
G1 X94.563 Y101.038 E73.44849
G1 X95.147 Y101.074 E73.47403
G1 X95.720 Y100.964 E73.49950
G1 X96.247 Y100.716 E73.52493
G1 X96.698 Y100.345 E73.55042
G1 X97.041 Y99.872 E73.57593
G1 X97.255 Y99.329 E73.60141
G1 X97.329 Y98.750 E73.62689
G1 X97.255 Y98.170 E73.65241
G1 X97.041 Y97.627 E73.67789
G1 X96.698 Y97.154 E73.70340
G1 X96.247 Y96.783 E73.72889
G1 X95.720 Y96.535 E73.75432
G1 X95.147 Y96.425 E73.77979
G0 F15000 X112.689 Y98.458
G1 F2400 X112.689 Y99.041 E73.80524
G1 X112.834 Y99.606 E73.83070
G1 X113.115 Y100.119 E73.85624
G1 X113.515 Y100.544 E73.88171
G1 X114.007 Y100.857 E73.90717
G1 X114.563 Y101.038 E73.93269
G1 X115.147 Y101.074 E73.95824
G1 X115.720 Y100.964 E73.98371
G1 X116.247 Y100.716 E74.00913
G1 X116.698 Y100.345 E74.03463
G1 X117.041 Y99.872 E74.06013
G1 X117.255 Y99.329 E74.08561
G1 X117.329 Y98.750 E74.11109
G1 X117.255 Y98.170 E74.13662
G1 X117.041 Y97.627 E74.16210
G1 X116.698 Y97.154 E74.18760
G1 X116.247 Y96.783 E74.21309
G1 X115.720 Y96.535 E74.23852
G1 X115.147 Y96.425 E74.26399
G1 X114.563 Y96.461 E74.28953
G1 X114.007 Y96.642 E74.31506
G1 X113.515 Y96.955 E74.34051
G1 X113.115 Y97.380 E74.36599
G1 X112.834 Y97.893 E74.39153
G1 X112.689 Y98.458 E74.41699
G0 F15000 X113.097 Y100.132
G0 X117.635 Y108.225
G1 F2400 X98.424 Y108.225 E75.25562
G1 X98.424 Y126.836 E76.06807
G1 X98.474 Y127.199 E76.08406
G1 X98.624 Y127.564 E76.10129
G1 X98.864 Y127.876 E76.11847
G1 X99.184 Y128.125 E76.13617
G1 X99.554 Y128.276 E76.15362
G1 X99.914 Y128.325 E76.16948
G1 X116.146 Y128.325 E76.87807
G1 X116.510 Y128.275 E76.89411
G1 X116.874 Y128.125 E76.91130
G1 X117.186 Y127.885 E76.92848
G1 X117.434 Y127.566 E76.94612
G1 X117.588 Y127.195 E76.96365
G1 X117.635 Y126.834 E76.97955
G1 X117.635 Y108.225 E77.79190
G0 F15000 X117.285 Y108.575
;TYPE:WALL-OUTER
G1 F2400 X98.774 Y108.575 E78.59998
G1 X98.774 Y126.812 E79.39610
G1 X98.815 Y127.107 E79.40910
G1 X98.930 Y127.388 E79.42235
G1 X99.114 Y127.627 E79.43552
G1 X99.361 Y127.819 E79.44918
G1 X99.645 Y127.935 E79.46257
G1 X99.937 Y127.975 E79.47543
G1 X116.122 Y127.975 E80.18197
G1 X116.418 Y127.934 E80.19502
G1 X116.698 Y127.819 E80.20823
G1 X116.937 Y127.635 E80.22140
G1 X117.129 Y127.389 E80.23502
G1 X117.247 Y127.104 E80.24849
G1 X117.285 Y126.811 E80.26139
G1 X117.285 Y108.575 E81.05746
G0 F15000 X117.285 Y108.300
G0 X124.551 Y108.706
G0 X124.825 Y108.731
G1 F2400 X120.807 Y128.808 E81.95128
G1 X120.555 Y129.534 E81.98482
G1 X120.113 Y130.167 E82.01853
G1 X119.514 Y130.658 E82.05234
G1 X118.806 Y130.967 E82.08606
G1 X118.030 Y131.075 E82.12026
G1 X98.508 Y131.075 E82.97247
G1 X97.782 Y130.979 E83.00444
G1 X97.087 Y130.695 E83.03722
G1 X96.507 Y130.250 E83.06913
G1 X96.054 Y129.661 E83.10157
G1 X95.773 Y128.981 E83.13369
G1 X95.675 Y128.235 E83.16653
G1 X95.675 Y108.575 E84.02477
G1 X84.825 Y108.575 E84.49841
G1 X84.825 Y122.239 E85.09490
G1 X84.780 Y122.917 E85.12456
G1 X84.626 Y123.756 E85.16180
G1 X84.380 Y124.481 E85.19522
G1 X84.083 Y125.084 E85.22457
G1 X83.624 Y125.792 E85.26140
G1 X83.118 Y126.368 E85.29487
G1 X82.542 Y126.874 E85.32834
G1 X81.915 Y127.293 E85.36126
G1 X81.306 Y127.592 E85.39087
G1 X81.228 Y127.631 E85.39468
G1 X80.508 Y127.875 E85.42787
G1 X79.845 Y128.006 E85.45737
G1 X78.988 Y128.075 E85.49490
G1 X75.175 Y128.075 E85.66136
G1 X75.175 Y120.425 E85.99531
G1 X80.175 Y120.425 E86.21358
G1 X80.175 Y104.265 E86.91902
G1 X80.307 Y103.259 E86.96332
G1 X80.689 Y102.337 E87.00688
